( PCB Contour )
( Generated by Carbide Copper )
( Material Size )
( X= 103.000, Y= 53.000, Z= 1.500 )
()
G17
G21
G54
G90
G00  X43.114 Y52.137
G01 F750 Z0
G01 F400 Z-0.100
G01 F400 X42.885 Y52.088
G01 F400 X42.670 Y51.992
G01 F400 X42.479 Y51.854
G01 F400 X42.322 Y51.679
G01 F400 X42.247 Y51.549
G01 F400 X18.832 Y51.540
G01 F400 X18.725 Y51.517
G01 F400 X18.625 Y51.472
G01 F400 X18.538 Y51.410
G01 F400 X18.367 Y51.238
G01 F400 X18.152 Y51.284
G01 F400 X17.916 Y51.284
G01 F400 X17.686 Y51.235
G01 F400 X17.472 Y51.139
G01 F400 X17.281 Y51.001
G01 F400 X17.124 Y50.826
G01 F400 X17.006 Y50.623
G01 F400 X16.934 Y50.399
G01 F400 X16.909 Y50.165
G01 F400 X16.916 Y50.104
G01 F400 X9.846 Y50.104
G01 F400 X9.768 Y50.242
G01 F400 X9.610 Y50.418
G01 F400 X9.420 Y50.556
G01 F400 X9.205 Y50.652
G01 F400 X8.975 Y50.700
G01 F400 X6.140 Y50.700
G01 F400 X5.910 Y50.652
G01 F400 X5.695 Y50.556
G01 F400 X5.505 Y50.418
G01 F400 X5.347 Y50.243
G01 F400 X5.230 Y50.039
G01 F400 X5.157 Y49.816
G01 F400 X5.133 Y49.582
G01 F400 X5.157 Y49.348
G01 F400 X5.230 Y49.124
G01 F400 X5.347 Y48.921
G01 F400 X5.505 Y48.746
G01 F400 X5.695 Y48.608
G01 F400 X5.910 Y48.512
G01 F400 X6.140 Y48.463
G01 F400 X8.975 Y48.463
G01 F400 X9.205 Y48.512
G01 F400 X9.420 Y48.608
G01 F400 X9.610 Y48.746
G01 F400 X9.767 Y48.921
G01 F400 X9.843 Y49.051
G01 F400 X17.506 Y49.060
G01 F400 X17.613 Y49.083
G01 F400 X17.660 Y49.104
G01 F400 X17.695 Y49.093
G01 F400 X17.916 Y49.046
G01 F400 X18.152 Y49.046
G01 F400 X18.382 Y49.095
G01 F400 X18.596 Y49.191
G01 F400 X18.787 Y49.329
G01 F400 X18.944 Y49.504
G01 F400 X19.062 Y49.708
G01 F400 X19.134 Y49.931
G01 F400 X19.159 Y50.165
G01 F400 X19.134 Y50.399
G01 F400 X19.103 Y50.494
G01 F400 X19.105 Y50.496
G01 F400 X42.243 Y50.496
G01 F400 X42.322 Y50.357
G01 F400 X42.479 Y50.182
G01 F400 X42.670 Y50.044
G01 F400 X42.885 Y49.948
G01 F400 X43.114 Y49.899
G01 F400 X43.350 Y49.899
G01 F400 X43.580 Y49.948
G01 F400 X43.794 Y50.044
G01 F400 X43.985 Y50.182
G01 F400 X44.142 Y50.357
G01 F400 X44.260 Y50.560
G01 F400 X44.332 Y50.784
G01 F400 X44.357 Y51.018
G01 F400 X44.332 Y51.252
G01 F400 X44.260 Y51.475
G01 F400 X44.142 Y51.679
G01 F400 X43.985 Y51.854
G01 F400 X43.794 Y51.992
G01 F400 X43.580 Y52.088
G01 F400 X43.350 Y52.137
G01 F400 X43.114 Y52.137
G00 Z3.000
G00  X49.614 Y52.137
G01 F750 Z0
G01 F400 Z-0.100
G01 F400 X49.384 Y52.088
G01 F400 X49.169 Y51.992
G01 F400 X48.979 Y51.854
G01 F400 X48.822 Y51.679
G01 F400 X48.704 Y51.475
G01 F400 X48.632 Y51.252
G01 F400 X48.607 Y51.018
G01 F400 X48.632 Y50.784
G01 F400 X48.704 Y50.560
G01 F400 X48.822 Y50.357
G01 F400 X48.979 Y50.182
G01 F400 X49.169 Y50.044
G01 F400 X49.384 Y49.948
G01 F400 X49.614 Y49.899
G01 F400 X49.849 Y49.899
G01 F400 X50.080 Y49.948
G01 F400 X50.294 Y50.044
G01 F400 X50.485 Y50.182
G01 F400 X50.642 Y50.357
G01 F400 X50.760 Y50.560
G01 F400 X50.832 Y50.784
G01 F400 X50.857 Y51.018
G01 F400 X50.832 Y51.252
G01 F400 X50.760 Y51.475
G01 F400 X50.642 Y51.679
G01 F400 X50.485 Y51.854
G01 F400 X50.294 Y51.992
G01 F400 X50.080 Y52.088
G01 F400 X49.849 Y52.137
G01 F400 X49.614 Y52.137
G00 Z3.000
G00  X2.739 Y48.800
G01 F750 Z0
G01 F400 Z-0.100
G01 F400 X2.509 Y48.752
G01 F400 X2.295 Y48.656
G01 F400 X2.104 Y48.518
G01 F400 X1.947 Y48.343
G01 F400 X1.830 Y48.139
G01 F400 X1.757 Y47.916
G01 F400 X1.733 Y47.688
G01 F400 X1.733 Y45.075
G01 F400 X1.757 Y44.848
G01 F400 X1.830 Y44.624
G01 F400 X1.947 Y44.421
G01 F400 X2.104 Y44.246
G01 F400 X2.295 Y44.108
G01 F400 X2.509 Y44.012
G01 F400 X2.739 Y43.963
G01 F400 X2.975 Y43.963
G01 F400 X3.205 Y44.012
G01 F400 X3.419 Y44.108
G01 F400 X3.610 Y44.246
G01 F400 X3.767 Y44.421
G01 F400 X3.885 Y44.624
G01 F400 X3.957 Y44.848
G01 F400 X3.981 Y45.075
G01 F400 X3.981 Y47.688
G01 F400 X3.957 Y47.916
G01 F400 X3.885 Y48.139
G01 F400 X3.767 Y48.343
G01 F400 X3.610 Y48.518
G01 F400 X3.419 Y48.656
G01 F400 X3.205 Y48.752
G01 F400 X2.975 Y48.800
G01 F400 X2.739 Y48.800
G00 Z3.000
G00  X43.114 Y47.637
G01 F750 Z0
G01 F400 Z-0.100
G01 F400 X42.885 Y47.588
G01 F400 X42.670 Y47.492
G01 F400 X42.479 Y47.354
G01 F400 X42.322 Y47.179
G01 F400 X42.205 Y46.976
G01 F400 X42.132 Y46.752
G01 F400 X42.107 Y46.518
G01 F400 X42.132 Y46.284
G01 F400 X42.205 Y46.061
G01 F400 X42.322 Y45.857
G01 F400 X42.479 Y45.682
G01 F400 X42.670 Y45.544
G01 F400 X42.885 Y45.448
G01 F400 X43.114 Y45.399
G01 F400 X43.350 Y45.399
G01 F400 X43.580 Y45.448
G01 F400 X43.794 Y45.544
G01 F400 X43.985 Y45.682
G01 F400 X44.142 Y45.857
G01 F400 X44.260 Y46.061
G01 F400 X44.332 Y46.284
G01 F400 X44.357 Y46.518
G01 F400 X44.332 Y46.752
G01 F400 X44.260 Y46.976
G01 F400 X44.142 Y47.179
G01 F400 X43.985 Y47.354
G01 F400 X43.794 Y47.492
G01 F400 X43.580 Y47.588
G01 F400 X43.350 Y47.637
G01 F400 X43.114 Y47.637
G00 Z3.000
G00  X49.614 Y47.637
G01 F750 Z0
G01 F400 Z-0.100
G01 F400 X49.384 Y47.588
G01 F400 X49.169 Y47.492
G01 F400 X48.979 Y47.354
G01 F400 X48.822 Y47.179
G01 F400 X48.704 Y46.976
G01 F400 X48.632 Y46.752
G01 F400 X48.607 Y46.518
G01 F400 X48.632 Y46.284
G01 F400 X48.704 Y46.061
G01 F400 X48.822 Y45.857
G01 F400 X48.979 Y45.682
G01 F400 X49.169 Y45.544
G01 F400 X49.384 Y45.448
G01 F400 X49.614 Y45.399
G01 F400 X49.849 Y45.399
G01 F400 X50.080 Y45.448
G01 F400 X50.294 Y45.544
G01 F400 X50.485 Y45.682
G01 F400 X50.642 Y45.857
G01 F400 X50.760 Y46.061
G01 F400 X50.832 Y46.284
G01 F400 X50.857 Y46.518
G01 F400 X50.832 Y46.752
G01 F400 X50.760 Y46.976
G01 F400 X50.642 Y47.179
G01 F400 X50.485 Y47.354
G01 F400 X50.294 Y47.492
G01 F400 X50.080 Y47.588
G01 F400 X49.849 Y47.637
G01 F400 X49.614 Y47.637
G00 Z3.000
G00  X17.916 Y47.347
G01 F750 Z0
G01 F400 Z-0.100
G01 F400 X17.686 Y47.298
G01 F400 X17.472 Y47.202
G01 F400 X17.281 Y47.064
G01 F400 X17.124 Y46.889
G01 F400 X17.006 Y46.686
G01 F400 X16.934 Y46.462
G01 F400 X16.909 Y46.228
G01 F400 X16.934 Y45.994
G01 F400 X16.965 Y45.899
G01 F400 X14.970 Y43.904
G01 F400 X9.846 Y43.904
G01 F400 X9.767 Y44.043
G01 F400 X9.610 Y44.218
G01 F400 X9.419 Y44.356
G01 F400 X9.205 Y44.452
G01 F400 X8.975 Y44.501
G01 F400 X6.139 Y44.501
G01 F400 X5.909 Y44.452
G01 F400 X5.695 Y44.356
G01 F400 X5.504 Y44.218
G01 F400 X5.347 Y44.043
G01 F400 X5.229 Y43.840
G01 F400 X5.157 Y43.616
G01 F400 X5.132 Y43.382
G01 F400 X5.157 Y43.148
G01 F400 X5.229 Y42.925
G01 F400 X5.347 Y42.721
G01 F400 X5.504 Y42.546
G01 F400 X5.695 Y42.408
G01 F400 X5.909 Y42.313
G01 F400 X6.139 Y42.264
G01 F400 X8.975 Y42.264
G01 F400 X9.205 Y42.313
G01 F400 X9.419 Y42.408
G01 F400 X9.610 Y42.546
G01 F400 X9.767 Y42.721
G01 F400 X9.842 Y42.851
G01 F400 X15.243 Y42.860
G01 F400 X15.350 Y42.883
G01 F400 X15.450 Y42.928
G01 F400 X15.537 Y42.990
G01 F400 X17.702 Y45.155
G01 F400 X17.916 Y45.109
G01 F400 X18.152 Y45.109
G01 F400 X18.366 Y45.155
G01 F400 X20.480 Y43.042
G01 F400 X20.566 Y42.980
G01 F400 X20.666 Y42.935
G01 F400 X20.773 Y42.912
G01 F400 X23.928 Y42.912
G01 F400 X23.988 Y42.808
G01 F400 X24.137 Y42.643
G01 F400 X24.317 Y42.512
G01 F400 X24.520 Y42.422
G01 F400 X24.738 Y42.375
G01 F400 X24.960 Y42.375
G01 F400 X25.178 Y42.422
G01 F400 X25.381 Y42.512
G01 F400 X25.561 Y42.643
G01 F400 X25.710 Y42.808
G01 F400 X25.822 Y43.001
G01 F400 X25.890 Y43.213
G01 F400 X25.914 Y43.434
G01 F400 X25.890 Y43.655
G01 F400 X25.822 Y43.867
G01 F400 X25.710 Y44.060
G01 F400 X25.561 Y44.225
G01 F400 X25.381 Y44.356
G01 F400 X25.178 Y44.447
G01 F400 X24.960 Y44.493
G01 F400 X24.738 Y44.493
G01 F400 X24.520 Y44.447
G01 F400 X24.317 Y44.356
G01 F400 X24.137 Y44.225
G01 F400 X23.988 Y44.060
G01 F400 X23.928 Y43.956
G01 F400 X21.047 Y43.956
G01 F400 X19.103 Y45.899
G01 F400 X19.134 Y45.994
G01 F400 X19.159 Y46.228
G01 F400 X19.134 Y46.462
G01 F400 X19.062 Y46.686
G01 F400 X18.944 Y46.889
G01 F400 X18.787 Y47.064
G01 F400 X18.596 Y47.202
G01 F400 X18.382 Y47.298
G01 F400 X18.152 Y47.347
G01 F400 X17.916 Y47.347
G00 Z3.000
G00  X78.268 Y46.209
G01 F750 Z0
G01 F400 Z-0.100
G01 F400 X78.089 Y46.171
G01 F400 X77.922 Y46.097
G01 F400 X77.774 Y45.989
G01 F400 X77.651 Y45.853
G01 F400 X77.560 Y45.695
G01 F400 X77.503 Y45.521
G01 F400 X77.484 Y45.339
G01 F400 X77.503 Y45.157
G01 F400 X77.560 Y44.983
G01 F400 X77.651 Y44.825
G01 F400 X77.774 Y44.689
G01 F400 X77.922 Y44.581
G01 F400 X78.089 Y44.507
G01 F400 X78.268 Y44.469
G01 F400 X78.450 Y44.469
G01 F400 X78.629 Y44.507
G01 F400 X78.796 Y44.581
G01 F400 X78.944 Y44.689
G01 F400 X79.060 Y44.817
G01 F400 X86.692 Y44.817
G01 F400 X86.678 Y44.691
G01 F400 X86.699 Y44.499
G01 F400 X86.758 Y44.315
G01 F400 X86.855 Y44.148
G01 F400 X86.984 Y44.004
G01 F400 X87.141 Y43.890
G01 F400 X87.317 Y43.812
G01 F400 X87.506 Y43.772
G01 F400 X87.700 Y43.772
G01 F400 X87.889 Y43.812
G01 F400 X88.066 Y43.890
G01 F400 X88.222 Y44.004
G01 F400 X88.351 Y44.148
G01 F400 X88.448 Y44.315
G01 F400 X88.508 Y44.499
G01 F400 X88.528 Y44.691
G01 F400 X88.508 Y44.884
G01 F400 X88.448 Y45.067
G01 F400 X88.351 Y45.235
G01 F400 X88.222 Y45.379
G01 F400 X88.066 Y45.492
G01 F400 X87.889 Y45.571
G01 F400 X87.700 Y45.611
G01 F400 X87.506 Y45.611
G01 F400 X87.438 Y45.596
G01 F400 X87.304 Y45.731
G01 F400 X87.218 Y45.794
G01 F400 X87.118 Y45.838
G01 F400 X87.010 Y45.861
G01 F400 X79.060 Y45.861
G01 F400 X78.944 Y45.989
G01 F400 X78.796 Y46.097
G01 F400 X78.629 Y46.171
G01 F400 X78.450 Y46.209
G01 F400 X78.268 Y46.209
G00 Z3.000
G00  X63.663 Y46.209
G01 F750 Z0
G01 F400 Z-0.100
G01 F400 X63.484 Y46.171
G01 F400 X63.317 Y46.097
G01 F400 X63.169 Y45.989
G01 F400 X63.046 Y45.853
G01 F400 X62.955 Y45.695
G01 F400 X62.898 Y45.521
G01 F400 X62.879 Y45.339
G01 F400 X62.898 Y45.157
G01 F400 X62.955 Y44.983
G01 F400 X63.046 Y44.825
G01 F400 X63.169 Y44.689
G01 F400 X63.230 Y44.644
G01 F400 X63.230 Y37.733
G01 F400 X47.361 Y37.733
G01 F400 X47.279 Y37.881
G01 F400 X47.118 Y38.059
G01 F400 X46.925 Y38.199
G01 F400 X46.708 Y38.296
G01 F400 X46.474 Y38.346
G01 F400 X46.236 Y38.346
G01 F400 X46.003 Y38.296
G01 F400 X45.785 Y38.199
G01 F400 X45.592 Y38.059
G01 F400 X45.432 Y37.882
G01 F400 X45.313 Y37.675
G01 F400 X45.239 Y37.448
G01 F400 X45.214 Y37.211
G01 F400 X45.239 Y36.974
G01 F400 X45.313 Y36.747
G01 F400 X45.432 Y36.541
G01 F400 X45.592 Y36.363
G01 F400 X45.785 Y36.223
G01 F400 X46.003 Y36.126
G01 F400 X46.236 Y36.077
G01 F400 X46.474 Y36.077
G01 F400 X46.708 Y36.126
G01 F400 X46.925 Y36.223
G01 F400 X47.118 Y36.363
G01 F400 X47.278 Y36.541
G01 F400 X47.355 Y36.674
G01 F400 X68.232 Y36.689
G01 F400 X72.218 Y32.703
G01 F400 X72.305 Y32.640
G01 F400 X72.405 Y32.595
G01 F400 X72.512 Y32.572
G01 F400 X72.622 Y32.572
G01 F400 X72.730 Y32.595
G01 F400 X72.830 Y32.640
G01 F400 X72.919 Y32.704
G01 F400 X72.992 Y32.786
G01 F400 X73.047 Y32.881
G01 F400 X73.081 Y32.985
G01 F400 X73.092 Y33.094
G01 F400 X73.081 Y33.203
G01 F400 X73.047 Y33.308
G01 F400 X72.992 Y33.403
G01 F400 X72.925 Y33.477
G01 F400 X68.799 Y37.603
G01 F400 X68.713 Y37.666
G01 F400 X68.613 Y37.710
G01 F400 X68.506 Y37.733
G01 F400 X64.278 Y37.733
G01 F400 X64.278 Y42.817
G01 F400 X71.334 Y42.817
G01 F400 X71.441 Y42.840
G01 F400 X71.541 Y42.885
G01 F400 X71.627 Y42.947
G01 F400 X73.156 Y44.476
G01 F400 X73.188 Y44.469
G01 F400 X73.370 Y44.469
G01 F400 X73.549 Y44.507
G01 F400 X73.716 Y44.581
G01 F400 X73.864 Y44.689
G01 F400 X73.987 Y44.825
G01 F400 X74.078 Y44.983
G01 F400 X74.135 Y45.157
G01 F400 X74.154 Y45.339
G01 F400 X74.135 Y45.521
G01 F400 X74.078 Y45.695
G01 F400 X73.987 Y45.853
G01 F400 X73.864 Y45.989
G01 F400 X73.716 Y46.097
G01 F400 X73.549 Y46.171
G01 F400 X73.370 Y46.209
G01 F400 X73.188 Y46.209
G01 F400 X73.009 Y46.171
G01 F400 X72.842 Y46.097
G01 F400 X72.694 Y45.989
G01 F400 X72.571 Y45.853
G01 F400 X72.480 Y45.695
G01 F400 X72.423 Y45.521
G01 F400 X72.404 Y45.339
G01 F400 X72.416 Y45.229
G01 F400 X71.060 Y43.861
G01 F400 X64.278 Y43.861
G01 F400 X64.278 Y44.644
G01 F400 X64.339 Y44.689
G01 F400 X64.462 Y44.825
G01 F400 X64.553 Y44.983
G01 F400 X64.610 Y45.157
G01 F400 X64.629 Y45.339
G01 F400 X64.610 Y45.521
G01 F400 X64.553 Y45.695
G01 F400 X64.462 Y45.853
G01 F400 X64.339 Y45.989
G01 F400 X64.191 Y46.097
G01 F400 X64.024 Y46.171
G01 F400 X63.845 Y46.209
G01 F400 X63.663 Y46.209
G00 Z3.000
G00  X68.743 Y46.209
G01 F750 Z0
G01 F400 Z-0.100
G01 F400 X68.564 Y46.171
G01 F400 X68.397 Y46.097
G01 F400 X68.249 Y45.989
G01 F400 X68.126 Y45.853
G01 F400 X68.035 Y45.695
G01 F400 X67.978 Y45.521
G01 F400 X67.959 Y45.339
G01 F400 X67.978 Y45.157
G01 F400 X68.035 Y44.983
G01 F400 X68.126 Y44.825
G01 F400 X68.249 Y44.689
G01 F400 X68.397 Y44.581
G01 F400 X68.564 Y44.507
G01 F400 X68.743 Y44.469
G01 F400 X68.925 Y44.469
G01 F400 X69.104 Y44.507
G01 F400 X69.271 Y44.581
G01 F400 X69.419 Y44.689
G01 F400 X69.542 Y44.825
G01 F400 X69.633 Y44.983
G01 F400 X69.690 Y45.157
G01 F400 X69.709 Y45.339
G01 F400 X69.690 Y45.521
G01 F400 X69.633 Y45.695
G01 F400 X69.542 Y45.853
G01 F400 X69.419 Y45.989
G01 F400 X69.271 Y46.097
G01 F400 X69.104 Y46.171
G01 F400 X68.925 Y46.209
G01 F400 X68.743 Y46.209
G00 Z3.000
G00  X92.386 Y45.636
G01 F750 Z0
G01 F400 Z-0.100
G01 F400 X92.197 Y45.596
G01 F400 X92.020 Y45.518
G01 F400 X91.864 Y45.404
G01 F400 X91.735 Y45.260
G01 F400 X91.638 Y45.093
G01 F400 X91.578 Y44.909
G01 F400 X91.558 Y44.717
G01 F400 X91.578 Y44.524
G01 F400 X91.638 Y44.341
G01 F400 X91.735 Y44.173
G01 F400 X91.864 Y44.029
G01 F400 X92.020 Y43.916
G01 F400 X92.197 Y43.837
G01 F400 X92.386 Y43.797
G01 F400 X92.580 Y43.797
G01 F400 X92.769 Y43.837
G01 F400 X92.945 Y43.916
G01 F400 X93.102 Y44.029
G01 F400 X93.231 Y44.173
G01 F400 X93.328 Y44.341
G01 F400 X93.388 Y44.524
G01 F400 X93.408 Y44.717
G01 F400 X93.388 Y44.909
G01 F400 X93.328 Y45.093
G01 F400 X93.231 Y45.260
G01 F400 X93.102 Y45.404
G01 F400 X92.945 Y45.518
G01 F400 X92.769 Y45.596
G01 F400 X92.580 Y45.636
G01 F400 X92.386 Y45.636
G00 Z3.000
G00  X39.932 Y44.663
G01 F750 Z0
G01 F400 Z-0.100
G01 F400 X39.825 Y44.640
G01 F400 X39.725 Y44.595
G01 F400 X39.639 Y44.532
G01 F400 X33.429 Y38.323
G01 F400 X33.303 Y38.296
G01 F400 X33.085 Y38.199
G01 F400 X32.892 Y38.059
G01 F400 X32.732 Y37.882
G01 F400 X32.613 Y37.675
G01 F400 X32.539 Y37.448
G01 F400 X32.514 Y37.211
G01 F400 X32.539 Y36.974
G01 F400 X32.613 Y36.747
G01 F400 X32.732 Y36.541
G01 F400 X32.892 Y36.363
G01 F400 X33.085 Y36.223
G01 F400 X33.303 Y36.126
G01 F400 X33.536 Y36.077
G01 F400 X33.774 Y36.077
G01 F400 X34.008 Y36.126
G01 F400 X34.225 Y36.223
G01 F400 X34.418 Y36.363
G01 F400 X34.578 Y36.541
G01 F400 X34.697 Y36.747
G01 F400 X34.771 Y36.974
G01 F400 X34.796 Y37.211
G01 F400 X34.771 Y37.448
G01 F400 X34.697 Y37.675
G01 F400 X34.578 Y37.882
G01 F400 X34.526 Y37.939
G01 F400 X40.205 Y43.619
G01 F400 X60.089 Y43.619
G01 F400 X60.196 Y43.642
G01 F400 X60.296 Y43.686
G01 F400 X60.385 Y43.751
G01 F400 X60.458 Y43.832
G01 F400 X60.513 Y43.927
G01 F400 X60.547 Y44.032
G01 F400 X60.558 Y44.141
G01 F400 X60.547 Y44.250
G01 F400 X60.513 Y44.354
G01 F400 X60.458 Y44.449
G01 F400 X60.385 Y44.531
G01 F400 X60.296 Y44.595
G01 F400 X60.196 Y44.640
G01 F400 X60.089 Y44.663
G01 F400 X39.932 Y44.663
G00 Z3.000
G00  X35.238 Y44.493
G01 F750 Z0
G01 F400 Z-0.100
G01 F400 X35.020 Y44.447
G01 F400 X34.817 Y44.356
G01 F400 X34.637 Y44.225
G01 F400 X34.488 Y44.060
G01 F400 X34.376 Y43.867
G01 F400 X34.308 Y43.655
G01 F400 X34.284 Y43.434
G01 F400 X34.308 Y43.213
G01 F400 X34.376 Y43.001
G01 F400 X34.488 Y42.808
G01 F400 X34.637 Y42.643
G01 F400 X34.817 Y42.512
G01 F400 X35.020 Y42.422
G01 F400 X35.238 Y42.375
G01 F400 X35.460 Y42.375
G01 F400 X35.678 Y42.422
G01 F400 X35.881 Y42.512
G01 F400 X36.061 Y42.643
G01 F400 X36.210 Y42.808
G01 F400 X36.322 Y43.001
G01 F400 X36.390 Y43.213
G01 F400 X36.413 Y43.434
G01 F400 X36.390 Y43.655
G01 F400 X36.322 Y43.867
G01 F400 X36.210 Y44.060
G01 F400 X36.061 Y44.225
G01 F400 X35.881 Y44.356
G01 F400 X35.678 Y44.447
G01 F400 X35.460 Y44.493
G01 F400 X35.238 Y44.493
G00 Z3.000
G00  X93.739 Y39.998
G01 F750 Z0
G01 F400 Z-0.100
G01 F400 X93.558 Y39.959
G01 F400 X93.389 Y39.884
G01 F400 X93.239 Y39.775
G01 F400 X93.115 Y39.637
G01 F400 X93.022 Y39.477
G01 F400 X92.965 Y39.300
G01 F400 X92.945 Y39.116
G01 F400 X92.965 Y38.932
G01 F400 X93.022 Y38.755
G01 F400 X93.115 Y38.595
G01 F400 X93.239 Y38.457
G01 F400 X93.389 Y38.348
G01 F400 X93.558 Y38.273
G01 F400 X93.739 Y38.234
G01 F400 X94.401 Y38.234
G01 F400 X94.582 Y38.273
G01 F400 X94.751 Y38.348
G01 F400 X94.901 Y38.457
G01 F400 X95.025 Y38.594
G01 F400 X96.311 Y38.594
G01 F400 X96.435 Y38.457
G01 F400 X96.585 Y38.348
G01 F400 X96.754 Y38.273
G01 F400 X96.935 Y38.234
G01 F400 X97.121 Y38.234
G01 F400 X97.302 Y38.273
G01 F400 X97.471 Y38.348
G01 F400 X97.621 Y38.457
G01 F400 X97.745 Y38.595
G01 F400 X97.838 Y38.755
G01 F400 X97.895 Y38.932
G01 F400 X97.915 Y39.116
G01 F400 X97.895 Y39.300
G01 F400 X97.838 Y39.477
G01 F400 X97.745 Y39.637
G01 F400 X97.621 Y39.775
G01 F400 X97.471 Y39.884
G01 F400 X97.302 Y39.959
G01 F400 X97.121 Y39.998
G01 F400 X96.935 Y39.998
G01 F400 X96.754 Y39.959
G01 F400 X96.585 Y39.884
G01 F400 X96.435 Y39.775
G01 F400 X96.311 Y39.638
G01 F400 X95.025 Y39.638
G01 F400 X94.901 Y39.775
G01 F400 X94.751 Y39.884
G01 F400 X94.582 Y39.959
G01 F400 X94.401 Y39.998
G01 F400 X93.739 Y39.998
G00 Z3.000
G00  X82.965 Y39.998
G01 F750 Z0
G01 F400 Z-0.100
G01 F400 X82.784 Y39.959
G01 F400 X82.615 Y39.884
G01 F400 X82.465 Y39.775
G01 F400 X82.341 Y39.637
G01 F400 X82.248 Y39.477
G01 F400 X82.191 Y39.300
G01 F400 X82.171 Y39.116
G01 F400 X82.191 Y38.932
G01 F400 X82.248 Y38.755
G01 F400 X82.341 Y38.595
G01 F400 X82.465 Y38.457
G01 F400 X82.615 Y38.348
G01 F400 X82.784 Y38.273
G01 F400 X82.965 Y38.234
G01 F400 X83.151 Y38.234
G01 F400 X83.332 Y38.273
G01 F400 X83.501 Y38.348
G01 F400 X83.651 Y38.457
G01 F400 X83.775 Y38.594
G01 F400 X85.315 Y38.594
G01 F400 X85.439 Y38.457
G01 F400 X85.589 Y38.348
G01 F400 X85.758 Y38.273
G01 F400 X85.939 Y38.234
G01 F400 X86.601 Y38.234
G01 F400 X86.782 Y38.273
G01 F400 X86.952 Y38.348
G01 F400 X87.102 Y38.457
G01 F400 X87.226 Y38.595
G01 F400 X87.318 Y38.755
G01 F400 X87.376 Y38.932
G01 F400 X87.395 Y39.116
G01 F400 X87.376 Y39.300
G01 F400 X87.318 Y39.477
G01 F400 X87.226 Y39.637
G01 F400 X87.102 Y39.775
G01 F400 X86.952 Y39.884
G01 F400 X86.782 Y39.959
G01 F400 X86.601 Y39.998
G01 F400 X85.939 Y39.998
G01 F400 X85.758 Y39.959
G01 F400 X85.589 Y39.884
G01 F400 X85.439 Y39.775
G01 F400 X85.315 Y39.638
G01 F400 X83.775 Y39.638
G01 F400 X83.651 Y39.775
G01 F400 X83.501 Y39.884
G01 F400 X83.332 Y39.959
G01 F400 X83.151 Y39.998
G01 F400 X82.965 Y39.998
G00 Z3.000
G00  X77.679 Y39.105
G01 F750 Z0
G01 F400 Z-0.100
G01 F400 X77.342 Y39.033
G01 F400 X77.027 Y38.893
G01 F400 X76.748 Y38.690
G01 F400 X76.517 Y38.434
G01 F400 X76.345 Y38.136
G01 F400 X76.238 Y37.808
G01 F400 X76.202 Y37.465
G01 F400 X76.238 Y37.122
G01 F400 X76.345 Y36.794
G01 F400 X76.517 Y36.496
G01 F400 X76.748 Y36.240
G01 F400 X77.027 Y36.037
G01 F400 X77.342 Y35.897
G01 F400 X77.679 Y35.825
G01 F400 X78.023 Y35.825
G01 F400 X78.361 Y35.897
G01 F400 X78.675 Y36.037
G01 F400 X78.954 Y36.240
G01 F400 X79.185 Y36.496
G01 F400 X79.357 Y36.794
G01 F400 X79.464 Y37.122
G01 F400 X79.500 Y37.465
G01 F400 X79.464 Y37.808
G01 F400 X79.357 Y38.136
G01 F400 X79.185 Y38.434
G01 F400 X78.954 Y38.690
G01 F400 X78.675 Y38.893
G01 F400 X78.361 Y39.033
G01 F400 X78.023 Y39.105
G01 F400 X77.679 Y39.105
G00 Z3.000
G00  X2.495 Y39.105
G01 F750 Z0
G01 F400 Z-0.100
G01 F400 X2.158 Y39.033
G01 F400 X1.843 Y38.893
G01 F400 X1.564 Y38.690
G01 F400 X1.333 Y38.434
G01 F400 X1.161 Y38.136
G01 F400 X1.054 Y37.808
G01 F400 X1.018 Y37.465
G01 F400 X1.054 Y37.122
G01 F400 X1.161 Y36.794
G01 F400 X1.333 Y36.496
G01 F400 X1.564 Y36.240
G01 F400 X1.843 Y36.037
G01 F400 X2.158 Y35.897
G01 F400 X2.495 Y35.825
G01 F400 X2.839 Y35.825
G01 F400 X3.177 Y35.897
G01 F400 X3.491 Y36.037
G01 F400 X3.770 Y36.240
G01 F400 X4.001 Y36.496
G01 F400 X4.173 Y36.794
G01 F400 X4.280 Y37.122
G01 F400 X4.316 Y37.465
G01 F400 X4.280 Y37.808
G01 F400 X4.173 Y38.136
G01 F400 X4.001 Y38.434
G01 F400 X3.770 Y38.690
G01 F400 X3.491 Y38.893
G01 F400 X3.177 Y39.033
G01 F400 X2.839 Y39.105
G01 F400 X2.495 Y39.105
G00 Z3.000
G00  X7.115 Y38.351
G01 F750 Z0
G01 F400 Z-0.100
G01 F400 X7.115 Y36.071
G01 F400 X9.395 Y36.071
G01 F400 X9.395 Y38.351
G01 F400 X7.115 Y38.351
G00 Z3.000
G00  X30.996 Y38.346
G01 F750 Z0
G01 F400 Z-0.100
G01 F400 X30.763 Y38.296
G01 F400 X30.545 Y38.199
G01 F400 X30.352 Y38.059
G01 F400 X30.192 Y37.882
G01 F400 X30.073 Y37.675
G01 F400 X29.999 Y37.448
G01 F400 X29.974 Y37.211
G01 F400 X29.999 Y36.974
G01 F400 X30.073 Y36.747
G01 F400 X30.192 Y36.541
G01 F400 X30.352 Y36.363
G01 F400 X30.545 Y36.223
G01 F400 X30.763 Y36.126
G01 F400 X30.996 Y36.077
G01 F400 X31.234 Y36.077
G01 F400 X31.468 Y36.126
G01 F400 X31.685 Y36.223
G01 F400 X31.878 Y36.363
G01 F400 X32.038 Y36.541
G01 F400 X32.157 Y36.747
G01 F400 X32.231 Y36.974
G01 F400 X32.256 Y37.211
G01 F400 X32.231 Y37.448
G01 F400 X32.157 Y37.675
G01 F400 X32.038 Y37.882
G01 F400 X31.878 Y38.059
G01 F400 X31.685 Y38.199
G01 F400 X31.468 Y38.296
G01 F400 X31.234 Y38.346
G01 F400 X30.996 Y38.346
G00 Z3.000
G00  X38.616 Y38.346
G01 F750 Z0
G01 F400 Z-0.100
G01 F400 X38.383 Y38.296
G01 F400 X38.165 Y38.199
G01 F400 X37.972 Y38.059
G01 F400 X37.812 Y37.882
G01 F400 X37.693 Y37.675
G01 F400 X37.619 Y37.448
G01 F400 X37.594 Y37.211
G01 F400 X37.619 Y36.974
G01 F400 X37.693 Y36.747
G01 F400 X37.812 Y36.541
G01 F400 X37.972 Y36.363
G01 F400 X38.165 Y36.223
G01 F400 X38.383 Y36.126
G01 F400 X38.479 Y36.105
G01 F400 X45.923 Y28.661
G01 F400 X46.009 Y28.599
G01 F400 X46.110 Y28.554
G01 F400 X46.217 Y28.531
G01 F400 X76.996 Y28.531
G01 F400 X77.103 Y28.554
G01 F400 X77.203 Y28.599
G01 F400 X77.292 Y28.663
G01 F400 X77.365 Y28.745
G01 F400 X77.420 Y28.840
G01 F400 X77.454 Y28.944
G01 F400 X77.466 Y29.053
G01 F400 X77.454 Y29.162
G01 F400 X77.420 Y29.267
G01 F400 X77.365 Y29.362
G01 F400 X77.292 Y29.443
G01 F400 X77.203 Y29.508
G01 F400 X77.103 Y29.552
G01 F400 X76.996 Y29.575
G01 F400 X46.490 Y29.575
G01 F400 X39.595 Y36.471
G01 F400 X39.658 Y36.541
G01 F400 X39.777 Y36.747
G01 F400 X39.851 Y36.974
G01 F400 X39.876 Y37.211
G01 F400 X39.851 Y37.448
G01 F400 X39.777 Y37.675
G01 F400 X39.658 Y37.882
G01 F400 X39.498 Y38.059
G01 F400 X39.305 Y38.199
G01 F400 X39.087 Y38.296
G01 F400 X38.854 Y38.346
G01 F400 X38.616 Y38.346
G00 Z3.000
G00  X36.076 Y38.346
G01 F750 Z0
G01 F400 Z-0.100
G01 F400 X35.843 Y38.296
G01 F400 X35.625 Y38.199
G01 F400 X35.432 Y38.059
G01 F400 X35.272 Y37.882
G01 F400 X35.153 Y37.675
G01 F400 X35.079 Y37.448
G01 F400 X35.054 Y37.211
G01 F400 X35.079 Y36.974
G01 F400 X35.153 Y36.747
G01 F400 X35.272 Y36.541
G01 F400 X35.432 Y36.363
G01 F400 X35.625 Y36.223
G01 F400 X35.843 Y36.126
G01 F400 X36.076 Y36.077
G01 F400 X36.314 Y36.077
G01 F400 X36.547 Y36.126
G01 F400 X36.765 Y36.223
G01 F400 X36.958 Y36.363
G01 F400 X37.118 Y36.541
G01 F400 X37.237 Y36.747
G01 F400 X37.311 Y36.974
G01 F400 X37.336 Y37.211
G01 F400 X37.311 Y37.448
G01 F400 X37.237 Y37.675
G01 F400 X37.118 Y37.882
G01 F400 X36.958 Y38.059
G01 F400 X36.765 Y38.199
G01 F400 X36.547 Y38.296
G01 F400 X36.314 Y38.346
G01 F400 X36.076 Y38.346
G00 Z3.000
G00  X23.376 Y38.346
G01 F750 Z0
G01 F400 Z-0.100
G01 F400 X23.143 Y38.296
G01 F400 X22.925 Y38.199
G01 F400 X22.732 Y38.059
G01 F400 X22.572 Y37.882
G01 F400 X22.453 Y37.675
G01 F400 X22.379 Y37.448
G01 F400 X22.354 Y37.211
G01 F400 X22.379 Y36.974
G01 F400 X22.453 Y36.747
G01 F400 X22.572 Y36.541
G01 F400 X22.732 Y36.363
G01 F400 X22.925 Y36.223
G01 F400 X23.143 Y36.126
G01 F400 X23.376 Y36.077
G01 F400 X23.614 Y36.077
G01 F400 X23.848 Y36.126
G01 F400 X24.065 Y36.223
G01 F400 X24.258 Y36.363
G01 F400 X24.418 Y36.541
G01 F400 X24.537 Y36.747
G01 F400 X24.611 Y36.974
G01 F400 X24.636 Y37.211
G01 F400 X24.611 Y37.448
G01 F400 X24.537 Y37.675
G01 F400 X24.418 Y37.882
G01 F400 X24.258 Y38.059
G01 F400 X24.065 Y38.199
G01 F400 X23.848 Y38.296
G01 F400 X23.614 Y38.346
G01 F400 X23.376 Y38.346
G00 Z3.000
G00  X20.836 Y38.346
G01 F750 Z0
G01 F400 Z-0.100
G01 F400 X20.603 Y38.296
G01 F400 X20.385 Y38.199
G01 F400 X20.192 Y38.059
G01 F400 X20.032 Y37.882
G01 F400 X19.913 Y37.675
G01 F400 X19.839 Y37.448
G01 F400 X19.814 Y37.211
G01 F400 X19.839 Y36.974
G01 F400 X19.913 Y36.747
G01 F400 X20.032 Y36.541
G01 F400 X20.192 Y36.363
G01 F400 X20.385 Y36.223
G01 F400 X20.603 Y36.126
G01 F400 X20.836 Y36.077
G01 F400 X21.074 Y36.077
G01 F400 X21.308 Y36.126
G01 F400 X21.525 Y36.223
G01 F400 X21.718 Y36.363
G01 F400 X21.878 Y36.541
G01 F400 X21.997 Y36.747
G01 F400 X22.071 Y36.974
G01 F400 X22.096 Y37.211
G01 F400 X22.071 Y37.448
G01 F400 X21.997 Y37.675
G01 F400 X21.878 Y37.882
G01 F400 X21.718 Y38.059
G01 F400 X21.525 Y38.199
G01 F400 X21.308 Y38.296
G01 F400 X21.074 Y38.346
G01 F400 X20.836 Y38.346
G00 Z3.000
G00  X28.456 Y38.346
G01 F750 Z0
G01 F400 Z-0.100
G01 F400 X28.223 Y38.296
G01 F400 X28.005 Y38.199
G01 F400 X27.812 Y38.059
G01 F400 X27.652 Y37.882
G01 F400 X27.533 Y37.675
G01 F400 X27.459 Y37.448
G01 F400 X27.434 Y37.211
G01 F400 X27.459 Y36.974
G01 F400 X27.533 Y36.747
G01 F400 X27.652 Y36.541
G01 F400 X27.812 Y36.363
G01 F400 X28.005 Y36.223
G01 F400 X28.223 Y36.126
G01 F400 X28.456 Y36.077
G01 F400 X28.694 Y36.077
G01 F400 X28.928 Y36.126
G01 F400 X29.145 Y36.223
G01 F400 X29.338 Y36.363
G01 F400 X29.498 Y36.541
G01 F400 X29.617 Y36.747
G01 F400 X29.691 Y36.974
G01 F400 X29.716 Y37.211
G01 F400 X29.691 Y37.448
G01 F400 X29.617 Y37.675
G01 F400 X29.498 Y37.882
G01 F400 X29.338 Y38.059
G01 F400 X29.145 Y38.199
G01 F400 X28.928 Y38.296
G01 F400 X28.694 Y38.346
G01 F400 X28.456 Y38.346
G00 Z3.000
G00  X25.916 Y38.346
G01 F750 Z0
G01 F400 Z-0.100
G01 F400 X25.683 Y38.296
G01 F400 X25.465 Y38.199
G01 F400 X25.272 Y38.059
G01 F400 X25.112 Y37.882
G01 F400 X24.993 Y37.675
G01 F400 X24.919 Y37.448
G01 F400 X24.894 Y37.211
G01 F400 X24.919 Y36.974
G01 F400 X24.993 Y36.747
G01 F400 X25.112 Y36.541
G01 F400 X25.272 Y36.363
G01 F400 X25.465 Y36.223
G01 F400 X25.683 Y36.126
G01 F400 X25.916 Y36.077
G01 F400 X26.154 Y36.077
G01 F400 X26.388 Y36.126
G01 F400 X26.605 Y36.223
G01 F400 X26.798 Y36.363
G01 F400 X26.958 Y36.541
G01 F400 X27.077 Y36.747
G01 F400 X27.151 Y36.974
G01 F400 X27.176 Y37.211
G01 F400 X27.151 Y37.448
G01 F400 X27.077 Y37.675
G01 F400 X26.958 Y37.882
G01 F400 X26.798 Y38.059
G01 F400 X26.605 Y38.199
G01 F400 X26.388 Y38.296
G01 F400 X26.154 Y38.346
G01 F400 X25.916 Y38.346
G00 Z3.000
G00  X43.696 Y38.346
G01 F750 Z0
G01 F400 Z-0.100
G01 F400 X43.462 Y38.296
G01 F400 X43.245 Y38.199
G01 F400 X43.052 Y38.059
G01 F400 X42.892 Y37.882
G01 F400 X42.773 Y37.675
G01 F400 X42.699 Y37.448
G01 F400 X42.674 Y37.211
G01 F400 X42.699 Y36.974
G01 F400 X42.773 Y36.747
G01 F400 X42.892 Y36.541
G01 F400 X43.052 Y36.363
G01 F400 X43.245 Y36.223
G01 F400 X43.462 Y36.126
G01 F400 X43.696 Y36.077
G01 F400 X43.934 Y36.077
G01 F400 X44.168 Y36.126
G01 F400 X44.385 Y36.223
G01 F400 X44.578 Y36.363
G01 F400 X44.738 Y36.541
G01 F400 X44.857 Y36.747
G01 F400 X44.931 Y36.974
G01 F400 X44.956 Y37.211
G01 F400 X44.931 Y37.448
G01 F400 X44.857 Y37.675
G01 F400 X44.738 Y37.882
G01 F400 X44.578 Y38.059
G01 F400 X44.385 Y38.199
G01 F400 X44.168 Y38.296
G01 F400 X43.934 Y38.346
G01 F400 X43.696 Y38.346
G00 Z3.000
G00  X41.156 Y38.346
G01 F750 Z0
G01 F400 Z-0.100
G01 F400 X40.922 Y38.296
G01 F400 X40.705 Y38.199
G01 F400 X40.512 Y38.059
G01 F400 X40.352 Y37.882
G01 F400 X40.233 Y37.675
G01 F400 X40.159 Y37.448
G01 F400 X40.134 Y37.211
G01 F400 X40.159 Y36.974
G01 F400 X40.233 Y36.747
G01 F400 X40.352 Y36.541
G01 F400 X40.512 Y36.363
G01 F400 X40.705 Y36.223
G01 F400 X40.835 Y36.165
G01 F400 X40.850 Y36.139
G01 F400 X40.917 Y36.064
G01 F400 X45.882 Y31.100
G01 F400 X45.968 Y31.037
G01 F400 X46.068 Y30.992
G01 F400 X46.176 Y30.970
G01 F400 X82.345 Y30.970
G01 F400 X82.465 Y30.837
G01 F400 X82.615 Y30.728
G01 F400 X82.784 Y30.653
G01 F400 X82.965 Y30.614
G01 F400 X83.151 Y30.614
G01 F400 X83.332 Y30.653
G01 F400 X83.501 Y30.728
G01 F400 X83.651 Y30.837
G01 F400 X83.772 Y30.971
G01 F400 X85.317 Y30.973
G01 F400 X85.439 Y30.837
G01 F400 X85.589 Y30.728
G01 F400 X85.758 Y30.653
G01 F400 X85.939 Y30.614
G01 F400 X86.601 Y30.614
G01 F400 X86.782 Y30.653
G01 F400 X86.952 Y30.728
G01 F400 X87.102 Y30.837
G01 F400 X87.226 Y30.975
G01 F400 X87.318 Y31.135
G01 F400 X87.376 Y31.312
G01 F400 X87.395 Y31.496
G01 F400 X87.376 Y31.680
G01 F400 X87.318 Y31.857
G01 F400 X87.226 Y32.017
G01 F400 X87.102 Y32.155
G01 F400 X86.952 Y32.264
G01 F400 X86.782 Y32.339
G01 F400 X86.601 Y32.378
G01 F400 X85.939 Y32.378
G01 F400 X85.758 Y32.339
G01 F400 X85.589 Y32.264
G01 F400 X85.439 Y32.155
G01 F400 X85.315 Y32.018
G01 F400 X83.775 Y32.018
G01 F400 X83.651 Y32.155
G01 F400 X83.501 Y32.264
G01 F400 X83.332 Y32.339
G01 F400 X83.151 Y32.378
G01 F400 X82.965 Y32.378
G01 F400 X82.784 Y32.339
G01 F400 X82.615 Y32.264
G01 F400 X82.465 Y32.155
G01 F400 X82.341 Y32.018
G01 F400 X46.449 Y32.013
G01 F400 X42.067 Y36.395
G01 F400 X42.198 Y36.541
G01 F400 X42.317 Y36.747
G01 F400 X42.391 Y36.974
G01 F400 X42.416 Y37.211
G01 F400 X42.391 Y37.448
G01 F400 X42.317 Y37.675
G01 F400 X42.198 Y37.882
G01 F400 X42.038 Y38.059
G01 F400 X41.845 Y38.199
G01 F400 X41.628 Y38.296
G01 F400 X41.394 Y38.346
G01 F400 X41.156 Y38.346
G00 Z3.000
G00  X13.216 Y38.346
G01 F750 Z0
G01 F400 Z-0.100
G01 F400 X12.982 Y38.296
G01 F400 X12.765 Y38.199
G01 F400 X12.572 Y38.059
G01 F400 X12.412 Y37.882
G01 F400 X12.293 Y37.675
G01 F400 X12.219 Y37.448
G01 F400 X12.194 Y37.211
G01 F400 X12.219 Y36.974
G01 F400 X12.293 Y36.747
G01 F400 X12.412 Y36.541
G01 F400 X12.572 Y36.363
G01 F400 X12.765 Y36.223
G01 F400 X12.982 Y36.126
G01 F400 X13.216 Y36.077
G01 F400 X13.454 Y36.077
G01 F400 X13.688 Y36.126
G01 F400 X13.905 Y36.223
G01 F400 X14.098 Y36.363
G01 F400 X14.258 Y36.541
G01 F400 X14.377 Y36.747
G01 F400 X14.451 Y36.974
G01 F400 X14.476 Y37.211
G01 F400 X14.451 Y37.448
G01 F400 X14.377 Y37.675
G01 F400 X14.258 Y37.882
G01 F400 X14.098 Y38.059
G01 F400 X13.905 Y38.199
G01 F400 X13.688 Y38.296
G01 F400 X13.454 Y38.346
G01 F400 X13.216 Y38.346
G00 Z3.000
G00  X10.676 Y38.346
G01 F750 Z0
G01 F400 Z-0.100
G01 F400 X10.443 Y38.296
G01 F400 X10.225 Y38.199
G01 F400 X10.032 Y38.059
G01 F400 X9.872 Y37.882
G01 F400 X9.753 Y37.675
G01 F400 X9.679 Y37.448
G01 F400 X9.654 Y37.211
G01 F400 X9.679 Y36.974
G01 F400 X9.753 Y36.747
G01 F400 X9.872 Y36.541
G01 F400 X10.032 Y36.363
G01 F400 X10.225 Y36.223
G01 F400 X10.443 Y36.126
G01 F400 X10.676 Y36.077
G01 F400 X10.914 Y36.077
G01 F400 X11.148 Y36.126
G01 F400 X11.365 Y36.223
G01 F400 X11.558 Y36.363
G01 F400 X11.718 Y36.541
G01 F400 X11.837 Y36.747
G01 F400 X11.911 Y36.974
G01 F400 X11.936 Y37.211
G01 F400 X11.911 Y37.448
G01 F400 X11.837 Y37.675
G01 F400 X11.718 Y37.882
G01 F400 X11.558 Y38.059
G01 F400 X11.365 Y38.199
G01 F400 X11.148 Y38.296
G01 F400 X10.914 Y38.346
G01 F400 X10.676 Y38.346
G00 Z3.000
G00  X18.296 Y38.346
G01 F750 Z0
G01 F400 Z-0.100
G01 F400 X18.063 Y38.296
G01 F400 X17.845 Y38.199
G01 F400 X17.652 Y38.059
G01 F400 X17.492 Y37.882
G01 F400 X17.373 Y37.675
G01 F400 X17.299 Y37.448
G01 F400 X17.274 Y37.211
G01 F400 X17.299 Y36.974
G01 F400 X17.373 Y36.747
G01 F400 X17.492 Y36.541
G01 F400 X17.652 Y36.363
G01 F400 X17.845 Y36.223
G01 F400 X18.063 Y36.126
G01 F400 X18.296 Y36.077
G01 F400 X18.534 Y36.077
G01 F400 X18.768 Y36.126
G01 F400 X18.985 Y36.223
G01 F400 X19.178 Y36.363
G01 F400 X19.338 Y36.541
G01 F400 X19.457 Y36.747
G01 F400 X19.531 Y36.974
G01 F400 X19.556 Y37.211
G01 F400 X19.531 Y37.448
G01 F400 X19.457 Y37.675
G01 F400 X19.338 Y37.882
G01 F400 X19.178 Y38.059
G01 F400 X18.985 Y38.199
G01 F400 X18.768 Y38.296
G01 F400 X18.534 Y38.346
G01 F400 X18.296 Y38.346
G00 Z3.000
G00  X15.756 Y38.346
G01 F750 Z0
G01 F400 Z-0.100
G01 F400 X15.523 Y38.296
G01 F400 X15.305 Y38.199
G01 F400 X15.112 Y38.059
G01 F400 X14.952 Y37.882
G01 F400 X14.833 Y37.675
G01 F400 X14.759 Y37.448
G01 F400 X14.734 Y37.211
G01 F400 X14.759 Y36.974
G01 F400 X14.833 Y36.747
G01 F400 X14.952 Y36.541
G01 F400 X15.112 Y36.363
G01 F400 X15.305 Y36.223
G01 F400 X15.523 Y36.126
G01 F400 X15.756 Y36.077
G01 F400 X15.994 Y36.077
G01 F400 X16.227 Y36.126
G01 F400 X16.445 Y36.223
G01 F400 X16.638 Y36.363
G01 F400 X16.798 Y36.541
G01 F400 X16.917 Y36.747
G01 F400 X16.991 Y36.974
G01 F400 X17.016 Y37.211
G01 F400 X16.991 Y37.448
G01 F400 X16.917 Y37.675
G01 F400 X16.798 Y37.882
G01 F400 X16.638 Y38.059
G01 F400 X16.445 Y38.199
G01 F400 X16.227 Y38.296
G01 F400 X15.994 Y38.346
G01 F400 X15.756 Y38.346
G00 Z3.000
G00  X93.739 Y37.458
G01 F750 Z0
G01 F400 Z-0.100
G01 F400 X93.558 Y37.419
G01 F400 X93.389 Y37.344
G01 F400 X93.239 Y37.235
G01 F400 X93.115 Y37.097
G01 F400 X93.022 Y36.937
G01 F400 X92.965 Y36.760
G01 F400 X92.945 Y36.576
G01 F400 X92.965 Y36.392
G01 F400 X93.022 Y36.215
G01 F400 X93.115 Y36.055
G01 F400 X93.239 Y35.917
G01 F400 X93.389 Y35.808
G01 F400 X93.558 Y35.733
G01 F400 X93.739 Y35.694
G01 F400 X94.401 Y35.694
G01 F400 X94.582 Y35.733
G01 F400 X94.751 Y35.808
G01 F400 X94.901 Y35.917
G01 F400 X95.025 Y36.054
G01 F400 X96.311 Y36.054
G01 F400 X96.435 Y35.917
G01 F400 X96.585 Y35.808
G01 F400 X96.754 Y35.733
G01 F400 X96.935 Y35.694
G01 F400 X97.121 Y35.694
G01 F400 X97.302 Y35.733
G01 F400 X97.471 Y35.808
G01 F400 X97.621 Y35.917
G01 F400 X97.745 Y36.055
G01 F400 X97.838 Y36.215
G01 F400 X97.895 Y36.392
G01 F400 X97.915 Y36.576
G01 F400 X97.895 Y36.760
G01 F400 X97.838 Y36.937
G01 F400 X97.745 Y37.097
G01 F400 X97.621 Y37.235
G01 F400 X97.471 Y37.344
G01 F400 X97.302 Y37.419
G01 F400 X97.121 Y37.458
G01 F400 X96.935 Y37.458
G01 F400 X96.754 Y37.419
G01 F400 X96.585 Y37.344
G01 F400 X96.435 Y37.235
G01 F400 X96.311 Y37.098
G01 F400 X95.025 Y37.098
G01 F400 X94.901 Y37.235
G01 F400 X94.751 Y37.344
G01 F400 X94.582 Y37.419
G01 F400 X94.401 Y37.458
G01 F400 X93.739 Y37.458
G00 Z3.000
G00  X82.965 Y37.458
G01 F750 Z0
G01 F400 Z-0.100
G01 F400 X82.784 Y37.419
G01 F400 X82.615 Y37.344
G01 F400 X82.465 Y37.235
G01 F400 X82.341 Y37.097
G01 F400 X82.248 Y36.937
G01 F400 X82.191 Y36.760
G01 F400 X82.171 Y36.576
G01 F400 X82.191 Y36.392
G01 F400 X82.248 Y36.215
G01 F400 X82.341 Y36.055
G01 F400 X82.465 Y35.917
G01 F400 X82.615 Y35.808
G01 F400 X82.784 Y35.733
G01 F400 X82.965 Y35.694
G01 F400 X83.151 Y35.694
G01 F400 X83.332 Y35.733
G01 F400 X83.501 Y35.808
G01 F400 X83.651 Y35.917
G01 F400 X83.775 Y36.054
G01 F400 X85.315 Y36.054
G01 F400 X85.439 Y35.917
G01 F400 X85.589 Y35.808
G01 F400 X85.758 Y35.733
G01 F400 X85.939 Y35.694
G01 F400 X86.601 Y35.694
G01 F400 X86.782 Y35.733
G01 F400 X86.952 Y35.808
G01 F400 X87.102 Y35.917
G01 F400 X87.226 Y36.055
G01 F400 X87.318 Y36.215
G01 F400 X87.376 Y36.392
G01 F400 X87.395 Y36.576
G01 F400 X87.376 Y36.760
G01 F400 X87.318 Y36.937
G01 F400 X87.226 Y37.097
G01 F400 X87.102 Y37.235
G01 F400 X86.952 Y37.344
G01 F400 X86.782 Y37.419
G01 F400 X86.601 Y37.458
G01 F400 X85.939 Y37.458
G01 F400 X85.758 Y37.419
G01 F400 X85.589 Y37.344
G01 F400 X85.439 Y37.235
G01 F400 X85.315 Y37.098
G01 F400 X83.775 Y37.098
G01 F400 X83.651 Y37.235
G01 F400 X83.501 Y37.344
G01 F400 X83.332 Y37.419
G01 F400 X83.151 Y37.458
G01 F400 X82.965 Y37.458
G00 Z3.000
G00  X13.140 Y34.968
G01 F750 Z0
G01 F400 Z-0.100
G01 F400 X12.922 Y34.922
G01 F400 X12.719 Y34.831
G01 F400 X12.539 Y34.700
G01 F400 X12.390 Y34.535
G01 F400 X12.278 Y34.342
G01 F400 X12.210 Y34.130
G01 F400 X12.186 Y33.909
G01 F400 X12.210 Y33.688
G01 F400 X12.278 Y33.476
G01 F400 X12.390 Y33.283
G01 F400 X12.539 Y33.118
G01 F400 X12.719 Y32.987
G01 F400 X12.922 Y32.897
G01 F400 X13.140 Y32.850
G01 F400 X13.362 Y32.850
G01 F400 X13.580 Y32.897
G01 F400 X13.783 Y32.987
G01 F400 X13.963 Y33.118
G01 F400 X14.112 Y33.283
G01 F400 X14.224 Y33.476
G01 F400 X14.292 Y33.688
G01 F400 X14.316 Y33.909
G01 F400 X14.292 Y34.130
G01 F400 X14.224 Y34.342
G01 F400 X14.112 Y34.535
G01 F400 X13.963 Y34.700
G01 F400 X13.783 Y34.831
G01 F400 X13.580 Y34.922
G01 F400 X13.362 Y34.968
G01 F400 X13.140 Y34.968
G00 Z3.000
G00  X2.640 Y34.968
G01 F750 Z0
G01 F400 Z-0.100
G01 F400 X2.422 Y34.922
G01 F400 X2.219 Y34.831
G01 F400 X2.039 Y34.700
G01 F400 X1.890 Y34.535
G01 F400 X1.779 Y34.342
G01 F400 X1.710 Y34.130
G01 F400 X1.687 Y33.909
G01 F400 X1.710 Y33.688
G01 F400 X1.779 Y33.476
G01 F400 X1.890 Y33.283
G01 F400 X2.039 Y33.118
G01 F400 X2.219 Y32.987
G01 F400 X2.422 Y32.897
G01 F400 X2.640 Y32.850
G01 F400 X2.862 Y32.850
G01 F400 X3.033 Y32.887
G01 F400 X9.896 Y26.024
G01 F400 X9.982 Y25.962
G01 F400 X10.082 Y25.917
G01 F400 X10.189 Y25.894
G01 F400 X82.341 Y25.894
G01 F400 X82.465 Y25.757
G01 F400 X82.615 Y25.648
G01 F400 X82.784 Y25.573
G01 F400 X82.965 Y25.534
G01 F400 X83.151 Y25.534
G01 F400 X83.332 Y25.573
G01 F400 X83.501 Y25.648
G01 F400 X83.651 Y25.757
G01 F400 X83.775 Y25.894
G01 F400 X85.315 Y25.894
G01 F400 X85.439 Y25.757
G01 F400 X85.589 Y25.648
G01 F400 X85.758 Y25.573
G01 F400 X85.939 Y25.534
G01 F400 X86.601 Y25.534
G01 F400 X86.782 Y25.573
G01 F400 X86.952 Y25.648
G01 F400 X87.102 Y25.757
G01 F400 X87.226 Y25.895
G01 F400 X87.318 Y26.055
G01 F400 X87.376 Y26.232
G01 F400 X87.395 Y26.416
G01 F400 X87.376 Y26.600
G01 F400 X87.318 Y26.777
G01 F400 X87.226 Y26.937
G01 F400 X87.102 Y27.075
G01 F400 X86.952 Y27.184
G01 F400 X86.782 Y27.259
G01 F400 X86.601 Y27.298
G01 F400 X85.939 Y27.298
G01 F400 X85.758 Y27.259
G01 F400 X85.589 Y27.184
G01 F400 X85.439 Y27.075
G01 F400 X85.315 Y26.938
G01 F400 X83.775 Y26.938
G01 F400 X83.651 Y27.075
G01 F400 X83.501 Y27.184
G01 F400 X83.332 Y27.259
G01 F400 X83.151 Y27.298
G01 F400 X82.965 Y27.298
G01 F400 X82.784 Y27.259
G01 F400 X82.615 Y27.184
G01 F400 X82.465 Y27.075
G01 F400 X82.341 Y26.938
G01 F400 X10.463 Y26.938
G01 F400 X3.773 Y33.628
G01 F400 X3.792 Y33.688
G01 F400 X3.816 Y33.909
G01 F400 X3.792 Y34.130
G01 F400 X3.724 Y34.342
G01 F400 X3.612 Y34.535
G01 F400 X3.463 Y34.700
G01 F400 X3.283 Y34.831
G01 F400 X3.080 Y34.922
G01 F400 X2.862 Y34.968
G01 F400 X2.640 Y34.968
G00 Z3.000
G00  X93.739 Y34.918
G01 F750 Z0
G01 F400 Z-0.100
G01 F400 X93.558 Y34.879
G01 F400 X93.389 Y34.804
G01 F400 X93.239 Y34.695
G01 F400 X93.115 Y34.557
G01 F400 X93.022 Y34.397
G01 F400 X92.965 Y34.220
G01 F400 X92.945 Y34.036
G01 F400 X92.965 Y33.852
G01 F400 X93.022 Y33.675
G01 F400 X93.115 Y33.515
G01 F400 X93.239 Y33.377
G01 F400 X93.389 Y33.268
G01 F400 X93.558 Y33.193
G01 F400 X93.739 Y33.154
G01 F400 X94.401 Y33.154
G01 F400 X94.582 Y33.193
G01 F400 X94.751 Y33.268
G01 F400 X94.901 Y33.377
G01 F400 X95.025 Y33.514
G01 F400 X96.311 Y33.514
G01 F400 X96.435 Y33.377
G01 F400 X96.585 Y33.268
G01 F400 X96.754 Y33.193
G01 F400 X96.935 Y33.154
G01 F400 X97.121 Y33.154
G01 F400 X97.302 Y33.193
G01 F400 X97.471 Y33.268
G01 F400 X97.621 Y33.377
G01 F400 X97.745 Y33.515
G01 F400 X97.838 Y33.675
G01 F400 X97.895 Y33.852
G01 F400 X97.915 Y34.036
G01 F400 X97.895 Y34.220
G01 F400 X97.838 Y34.397
G01 F400 X97.745 Y34.557
G01 F400 X97.621 Y34.695
G01 F400 X97.471 Y34.804
G01 F400 X97.302 Y34.879
G01 F400 X97.121 Y34.918
G01 F400 X96.935 Y34.918
G01 F400 X96.754 Y34.879
G01 F400 X96.585 Y34.804
G01 F400 X96.435 Y34.695
G01 F400 X96.311 Y34.558
G01 F400 X95.025 Y34.558
G01 F400 X94.901 Y34.695
G01 F400 X94.751 Y34.804
G01 F400 X94.582 Y34.879
G01 F400 X94.401 Y34.918
G01 F400 X93.739 Y34.918
G00 Z3.000
G00  X82.965 Y34.918
G01 F750 Z0
G01 F400 Z-0.100
G01 F400 X82.784 Y34.879
G01 F400 X82.615 Y34.804
G01 F400 X82.465 Y34.695
G01 F400 X82.341 Y34.557
G01 F400 X82.248 Y34.397
G01 F400 X82.191 Y34.220
G01 F400 X82.171 Y34.036
G01 F400 X82.191 Y33.852
G01 F400 X82.248 Y33.675
G01 F400 X82.341 Y33.515
G01 F400 X82.465 Y33.377
G01 F400 X82.615 Y33.268
G01 F400 X82.784 Y33.193
G01 F400 X82.965 Y33.154
G01 F400 X83.151 Y33.154
G01 F400 X83.332 Y33.193
G01 F400 X83.501 Y33.268
G01 F400 X83.651 Y33.377
G01 F400 X83.775 Y33.514
G01 F400 X85.315 Y33.514
G01 F400 X85.439 Y33.377
G01 F400 X85.589 Y33.268
G01 F400 X85.758 Y33.193
G01 F400 X85.939 Y33.154
G01 F400 X86.601 Y33.154
G01 F400 X86.782 Y33.193
G01 F400 X86.952 Y33.268
G01 F400 X87.102 Y33.377
G01 F400 X87.226 Y33.515
G01 F400 X87.318 Y33.675
G01 F400 X87.376 Y33.852
G01 F400 X87.395 Y34.036
G01 F400 X87.376 Y34.220
G01 F400 X87.318 Y34.397
G01 F400 X87.226 Y34.557
G01 F400 X87.102 Y34.695
G01 F400 X86.952 Y34.804
G01 F400 X86.782 Y34.879
G01 F400 X86.601 Y34.918
G01 F400 X85.939 Y34.918
G01 F400 X85.758 Y34.879
G01 F400 X85.589 Y34.804
G01 F400 X85.439 Y34.695
G01 F400 X85.315 Y34.558
G01 F400 X83.775 Y34.558
G01 F400 X83.651 Y34.695
G01 F400 X83.501 Y34.804
G01 F400 X83.332 Y34.879
G01 F400 X83.151 Y34.918
G01 F400 X82.965 Y34.918
G00 Z3.000
G00  X93.739 Y32.378
G01 F750 Z0
G01 F400 Z-0.100
G01 F400 X93.558 Y32.339
G01 F400 X93.389 Y32.264
G01 F400 X93.239 Y32.155
G01 F400 X93.115 Y32.017
G01 F400 X93.022 Y31.857
G01 F400 X92.965 Y31.680
G01 F400 X92.945 Y31.496
G01 F400 X92.965 Y31.312
G01 F400 X93.022 Y31.135
G01 F400 X93.115 Y30.975
G01 F400 X93.239 Y30.837
G01 F400 X93.389 Y30.728
G01 F400 X93.558 Y30.653
G01 F400 X93.739 Y30.614
G01 F400 X94.401 Y30.614
G01 F400 X94.582 Y30.653
G01 F400 X94.751 Y30.728
G01 F400 X94.901 Y30.837
G01 F400 X95.025 Y30.974
G01 F400 X96.311 Y30.974
G01 F400 X96.435 Y30.837
G01 F400 X96.585 Y30.728
G01 F400 X96.754 Y30.653
G01 F400 X96.935 Y30.614
G01 F400 X97.121 Y30.614
G01 F400 X97.302 Y30.653
G01 F400 X97.471 Y30.728
G01 F400 X97.621 Y30.837
G01 F400 X97.745 Y30.975
G01 F400 X97.838 Y31.135
G01 F400 X97.895 Y31.312
G01 F400 X97.915 Y31.496
G01 F400 X97.895 Y31.680
G01 F400 X97.838 Y31.857
G01 F400 X97.745 Y32.017
G01 F400 X97.621 Y32.155
G01 F400 X97.471 Y32.264
G01 F400 X97.302 Y32.339
G01 F400 X97.121 Y32.378
G01 F400 X96.935 Y32.378
G01 F400 X96.754 Y32.339
G01 F400 X96.585 Y32.264
G01 F400 X96.435 Y32.155
G01 F400 X96.311 Y32.018
G01 F400 X95.025 Y32.018
G01 F400 X94.901 Y32.155
G01 F400 X94.751 Y32.264
G01 F400 X94.582 Y32.339
G01 F400 X94.401 Y32.378
G01 F400 X93.739 Y32.378
G00 Z3.000
G00  X93.739 Y29.838
G01 F750 Z0
G01 F400 Z-0.100
G01 F400 X93.558 Y29.799
G01 F400 X93.389 Y29.724
G01 F400 X93.239 Y29.615
G01 F400 X93.115 Y29.477
G01 F400 X93.022 Y29.317
G01 F400 X92.965 Y29.140
G01 F400 X92.945 Y28.956
G01 F400 X92.965 Y28.772
G01 F400 X93.022 Y28.595
G01 F400 X93.115 Y28.435
G01 F400 X93.239 Y28.297
G01 F400 X93.389 Y28.188
G01 F400 X93.558 Y28.113
G01 F400 X93.739 Y28.074
G01 F400 X94.401 Y28.074
G01 F400 X94.582 Y28.113
G01 F400 X94.751 Y28.188
G01 F400 X94.901 Y28.297
G01 F400 X95.025 Y28.434
G01 F400 X96.311 Y28.434
G01 F400 X96.435 Y28.297
G01 F400 X96.585 Y28.188
G01 F400 X96.754 Y28.113
G01 F400 X96.935 Y28.074
G01 F400 X97.121 Y28.074
G01 F400 X97.302 Y28.113
G01 F400 X97.471 Y28.188
G01 F400 X97.621 Y28.297
G01 F400 X97.745 Y28.435
G01 F400 X97.838 Y28.595
G01 F400 X97.895 Y28.772
G01 F400 X97.915 Y28.956
G01 F400 X97.895 Y29.140
G01 F400 X97.838 Y29.317
G01 F400 X97.745 Y29.477
G01 F400 X97.621 Y29.615
G01 F400 X97.471 Y29.724
G01 F400 X97.302 Y29.799
G01 F400 X97.121 Y29.838
G01 F400 X96.935 Y29.838
G01 F400 X96.754 Y29.799
G01 F400 X96.585 Y29.724
G01 F400 X96.435 Y29.615
G01 F400 X96.311 Y29.478
G01 F400 X95.025 Y29.478
G01 F400 X94.901 Y29.615
G01 F400 X94.751 Y29.724
G01 F400 X94.582 Y29.799
G01 F400 X94.401 Y29.838
G01 F400 X93.739 Y29.838
G00 Z3.000
G00  X82.965 Y29.838
G01 F750 Z0
G01 F400 Z-0.100
G01 F400 X82.784 Y29.799
G01 F400 X82.615 Y29.724
G01 F400 X82.465 Y29.615
G01 F400 X82.341 Y29.477
G01 F400 X82.248 Y29.317
G01 F400 X82.191 Y29.140
G01 F400 X82.171 Y28.956
G01 F400 X82.191 Y28.772
G01 F400 X82.248 Y28.595
G01 F400 X82.341 Y28.435
G01 F400 X82.465 Y28.297
G01 F400 X82.615 Y28.188
G01 F400 X82.784 Y28.113
G01 F400 X82.965 Y28.074
G01 F400 X83.151 Y28.074
G01 F400 X83.332 Y28.113
G01 F400 X83.501 Y28.188
G01 F400 X83.651 Y28.297
G01 F400 X83.775 Y28.434
G01 F400 X85.315 Y28.434
G01 F400 X85.439 Y28.297
G01 F400 X85.589 Y28.188
G01 F400 X85.758 Y28.113
G01 F400 X85.939 Y28.074
G01 F400 X86.601 Y28.074
G01 F400 X86.782 Y28.113
G01 F400 X86.952 Y28.188
G01 F400 X87.102 Y28.297
G01 F400 X87.226 Y28.435
G01 F400 X87.318 Y28.595
G01 F400 X87.376 Y28.772
G01 F400 X87.395 Y28.956
G01 F400 X87.376 Y29.140
G01 F400 X87.318 Y29.317
G01 F400 X87.226 Y29.477
G01 F400 X87.102 Y29.615
G01 F400 X86.952 Y29.724
G01 F400 X86.782 Y29.799
G01 F400 X86.601 Y29.838
G01 F400 X85.939 Y29.838
G01 F400 X85.758 Y29.799
G01 F400 X85.589 Y29.724
G01 F400 X85.439 Y29.615
G01 F400 X85.315 Y29.478
G01 F400 X83.775 Y29.478
G01 F400 X83.651 Y29.615
G01 F400 X83.501 Y29.724
G01 F400 X83.332 Y29.799
G01 F400 X83.151 Y29.838
G01 F400 X82.965 Y29.838
G00 Z3.000
G00  X93.739 Y27.298
G01 F750 Z0
G01 F400 Z-0.100
G01 F400 X93.558 Y27.259
G01 F400 X93.389 Y27.184
G01 F400 X93.239 Y27.075
G01 F400 X93.115 Y26.937
G01 F400 X93.022 Y26.777
G01 F400 X92.965 Y26.600
G01 F400 X92.945 Y26.416
G01 F400 X92.965 Y26.232
G01 F400 X93.022 Y26.055
G01 F400 X93.115 Y25.895
G01 F400 X93.239 Y25.757
G01 F400 X93.389 Y25.648
G01 F400 X93.558 Y25.573
G01 F400 X93.739 Y25.534
G01 F400 X94.401 Y25.534
G01 F400 X94.582 Y25.573
G01 F400 X94.751 Y25.648
G01 F400 X94.901 Y25.757
G01 F400 X95.025 Y25.894
G01 F400 X96.311 Y25.894
G01 F400 X96.435 Y25.757
G01 F400 X96.585 Y25.648
G01 F400 X96.754 Y25.573
G01 F400 X96.935 Y25.534
G01 F400 X97.121 Y25.534
G01 F400 X97.302 Y25.573
G01 F400 X97.471 Y25.648
G01 F400 X97.621 Y25.757
G01 F400 X97.745 Y25.895
G01 F400 X97.838 Y26.055
G01 F400 X97.895 Y26.232
G01 F400 X97.915 Y26.416
G01 F400 X97.895 Y26.600
G01 F400 X97.838 Y26.777
G01 F400 X97.745 Y26.937
G01 F400 X97.621 Y27.075
G01 F400 X97.471 Y27.184
G01 F400 X97.302 Y27.259
G01 F400 X97.121 Y27.298
G01 F400 X96.935 Y27.298
G01 F400 X96.754 Y27.259
G01 F400 X96.585 Y27.184
G01 F400 X96.435 Y27.075
G01 F400 X96.311 Y26.938
G01 F400 X95.025 Y26.938
G01 F400 X94.901 Y27.075
G01 F400 X94.751 Y27.184
G01 F400 X94.582 Y27.259
G01 F400 X94.401 Y27.298
G01 F400 X93.739 Y27.298
G00 Z3.000
G00  X82.965 Y24.758
G01 F750 Z0
G01 F400 Z-0.100
G01 F400 X82.784 Y24.719
G01 F400 X82.615 Y24.644
G01 F400 X82.465 Y24.535
G01 F400 X82.341 Y24.397
G01 F400 X82.248 Y24.237
G01 F400 X82.191 Y24.060
G01 F400 X82.171 Y23.876
G01 F400 X82.191 Y23.692
G01 F400 X82.248 Y23.515
G01 F400 X82.341 Y23.355
G01 F400 X82.465 Y23.217
G01 F400 X82.615 Y23.108
G01 F400 X82.784 Y23.033
G01 F400 X82.965 Y22.994
G01 F400 X83.151 Y22.994
G01 F400 X83.332 Y23.033
G01 F400 X83.501 Y23.108
G01 F400 X83.651 Y23.217
G01 F400 X83.775 Y23.355
G01 F400 X83.868 Y23.515
G01 F400 X83.925 Y23.692
G01 F400 X83.945 Y23.876
G01 F400 X83.925 Y24.060
G01 F400 X83.868 Y24.237
G01 F400 X83.775 Y24.397
G01 F400 X83.651 Y24.535
G01 F400 X83.501 Y24.644
G01 F400 X83.332 Y24.719
G01 F400 X83.151 Y24.758
G01 F400 X82.965 Y24.758
G00 Z3.000
G00  X85.939 Y24.758
G01 F750 Z0
G01 F400 Z-0.100
G01 F400 X85.758 Y24.719
G01 F400 X85.589 Y24.644
G01 F400 X85.439 Y24.535
G01 F400 X85.315 Y24.397
G01 F400 X85.222 Y24.237
G01 F400 X85.165 Y24.060
G01 F400 X85.145 Y23.876
G01 F400 X85.165 Y23.692
G01 F400 X85.222 Y23.515
G01 F400 X85.315 Y23.355
G01 F400 X85.439 Y23.217
G01 F400 X85.589 Y23.108
G01 F400 X85.758 Y23.033
G01 F400 X85.939 Y22.994
G01 F400 X86.601 Y22.994
G01 F400 X86.782 Y23.033
G01 F400 X86.952 Y23.108
G01 F400 X87.102 Y23.217
G01 F400 X87.226 Y23.355
G01 F400 X87.318 Y23.515
G01 F400 X87.376 Y23.692
G01 F400 X87.395 Y23.876
G01 F400 X87.376 Y24.060
G01 F400 X87.318 Y24.237
G01 F400 X87.226 Y24.397
G01 F400 X87.102 Y24.535
G01 F400 X86.952 Y24.644
G01 F400 X86.782 Y24.719
G01 F400 X86.601 Y24.758
G01 F400 X85.939 Y24.758
G00 Z3.000
G00  X93.739 Y24.758
G01 F750 Z0
G01 F400 Z-0.100
G01 F400 X93.558 Y24.719
G01 F400 X93.389 Y24.644
G01 F400 X93.239 Y24.535
G01 F400 X93.115 Y24.398
G01 F400 X91.852 Y24.398
G01 F400 X91.744 Y24.375
G01 F400 X91.644 Y24.331
G01 F400 X91.558 Y24.268
G01 F400 X89.148 Y21.858
G01 F400 X87.225 Y21.858
G01 F400 X87.102 Y21.995
G01 F400 X86.952 Y22.104
G01 F400 X86.782 Y22.179
G01 F400 X86.601 Y22.218
G01 F400 X85.939 Y22.218
G01 F400 X85.758 Y22.179
G01 F400 X85.589 Y22.104
G01 F400 X85.439 Y21.995
G01 F400 X85.315 Y21.858
G01 F400 X83.775 Y21.858
G01 F400 X83.651 Y21.995
G01 F400 X83.501 Y22.104
G01 F400 X83.332 Y22.179
G01 F400 X83.151 Y22.218
G01 F400 X82.965 Y22.218
G01 F400 X82.784 Y22.179
G01 F400 X82.615 Y22.104
G01 F400 X82.465 Y21.995
G01 F400 X82.341 Y21.857
G01 F400 X82.248 Y21.697
G01 F400 X82.191 Y21.520
G01 F400 X82.171 Y21.336
G01 F400 X82.191 Y21.152
G01 F400 X82.248 Y20.975
G01 F400 X82.341 Y20.815
G01 F400 X82.465 Y20.677
G01 F400 X82.615 Y20.568
G01 F400 X82.784 Y20.493
G01 F400 X82.965 Y20.454
G01 F400 X83.151 Y20.454
G01 F400 X83.332 Y20.493
G01 F400 X83.501 Y20.568
G01 F400 X83.651 Y20.677
G01 F400 X83.775 Y20.814
G01 F400 X85.315 Y20.814
G01 F400 X85.439 Y20.677
G01 F400 X85.589 Y20.568
G01 F400 X85.758 Y20.493
G01 F400 X85.939 Y20.454
G01 F400 X86.601 Y20.454
G01 F400 X86.782 Y20.493
G01 F400 X86.952 Y20.568
G01 F400 X87.102 Y20.677
G01 F400 X87.225 Y20.814
G01 F400 X89.421 Y20.814
G01 F400 X89.529 Y20.837
G01 F400 X89.629 Y20.882
G01 F400 X89.715 Y20.944
G01 F400 X92.125 Y23.354
G01 F400 X93.115 Y23.354
G01 F400 X93.239 Y23.217
G01 F400 X93.389 Y23.108
G01 F400 X93.558 Y23.033
G01 F400 X93.739 Y22.994
G01 F400 X94.401 Y22.994
G01 F400 X94.582 Y23.033
G01 F400 X94.751 Y23.108
G01 F400 X94.901 Y23.217
G01 F400 X95.025 Y23.354
G01 F400 X96.311 Y23.354
G01 F400 X96.435 Y23.217
G01 F400 X96.585 Y23.108
G01 F400 X96.754 Y23.033
G01 F400 X96.935 Y22.994
G01 F400 X97.121 Y22.994
G01 F400 X97.302 Y23.033
G01 F400 X97.471 Y23.108
G01 F400 X97.621 Y23.217
G01 F400 X97.745 Y23.355
G01 F400 X97.838 Y23.515
G01 F400 X97.895 Y23.692
G01 F400 X97.915 Y23.876
G01 F400 X97.895 Y24.060
G01 F400 X97.838 Y24.237
G01 F400 X97.745 Y24.397
G01 F400 X97.621 Y24.535
G01 F400 X97.471 Y24.644
G01 F400 X97.302 Y24.719
G01 F400 X97.121 Y24.758
G01 F400 X96.935 Y24.758
G01 F400 X96.754 Y24.719
G01 F400 X96.585 Y24.644
G01 F400 X96.435 Y24.535
G01 F400 X96.311 Y24.398
G01 F400 X95.025 Y24.398
G01 F400 X94.901 Y24.535
G01 F400 X94.751 Y24.644
G01 F400 X94.582 Y24.719
G01 F400 X94.401 Y24.758
G01 F400 X93.739 Y24.758
G00 Z3.000
G00  X93.739 Y22.218
G01 F750 Z0
G01 F400 Z-0.100
G01 F400 X93.558 Y22.179
G01 F400 X93.389 Y22.104
G01 F400 X93.239 Y21.995
G01 F400 X93.115 Y21.857
G01 F400 X93.022 Y21.697
G01 F400 X92.965 Y21.520
G01 F400 X92.945 Y21.336
G01 F400 X92.965 Y21.152
G01 F400 X93.022 Y20.975
G01 F400 X93.115 Y20.815
G01 F400 X93.239 Y20.677
G01 F400 X93.389 Y20.568
G01 F400 X93.558 Y20.493
G01 F400 X93.739 Y20.454
G01 F400 X94.401 Y20.454
G01 F400 X94.582 Y20.493
G01 F400 X94.751 Y20.568
G01 F400 X94.901 Y20.677
G01 F400 X95.025 Y20.814
G01 F400 X96.311 Y20.814
G01 F400 X96.435 Y20.677
G01 F400 X96.585 Y20.568
G01 F400 X96.754 Y20.493
G01 F400 X96.935 Y20.454
G01 F400 X97.121 Y20.454
G01 F400 X97.302 Y20.493
G01 F400 X97.471 Y20.568
G01 F400 X97.621 Y20.677
G01 F400 X97.745 Y20.815
G01 F400 X97.838 Y20.975
G01 F400 X97.895 Y21.152
G01 F400 X97.915 Y21.336
G01 F400 X97.895 Y21.520
G01 F400 X97.838 Y21.697
G01 F400 X97.745 Y21.857
G01 F400 X97.621 Y21.995
G01 F400 X97.471 Y22.104
G01 F400 X97.302 Y22.179
G01 F400 X97.121 Y22.218
G01 F400 X96.935 Y22.218
G01 F400 X96.754 Y22.179
G01 F400 X96.585 Y22.104
G01 F400 X96.435 Y21.995
G01 F400 X96.311 Y21.858
G01 F400 X95.025 Y21.858
G01 F400 X94.901 Y21.995
G01 F400 X94.751 Y22.104
G01 F400 X94.582 Y22.179
G01 F400 X94.401 Y22.218
G01 F400 X93.739 Y22.218
G00 Z3.000
G00  X93.739 Y19.678
G01 F750 Z0
G01 F400 Z-0.100
G01 F400 X93.558 Y19.639
G01 F400 X93.389 Y19.564
G01 F400 X93.239 Y19.455
G01 F400 X93.115 Y19.317
G01 F400 X93.022 Y19.157
G01 F400 X92.965 Y18.980
G01 F400 X92.945 Y18.796
G01 F400 X92.965 Y18.612
G01 F400 X93.022 Y18.435
G01 F400 X93.115 Y18.275
G01 F400 X93.239 Y18.137
G01 F400 X93.389 Y18.028
G01 F400 X93.558 Y17.953
G01 F400 X93.739 Y17.914
G01 F400 X94.401 Y17.914
G01 F400 X94.582 Y17.953
G01 F400 X94.751 Y18.028
G01 F400 X94.901 Y18.137
G01 F400 X95.025 Y18.274
G01 F400 X96.311 Y18.274
G01 F400 X96.435 Y18.137
G01 F400 X96.585 Y18.028
G01 F400 X96.754 Y17.953
G01 F400 X96.935 Y17.914
G01 F400 X97.121 Y17.914
G01 F400 X97.302 Y17.953
G01 F400 X97.471 Y18.028
G01 F400 X97.621 Y18.137
G01 F400 X97.745 Y18.275
G01 F400 X97.838 Y18.435
G01 F400 X97.895 Y18.612
G01 F400 X97.915 Y18.796
G01 F400 X97.895 Y18.980
G01 F400 X97.838 Y19.157
G01 F400 X97.745 Y19.317
G01 F400 X97.621 Y19.455
G01 F400 X97.471 Y19.564
G01 F400 X97.302 Y19.639
G01 F400 X97.121 Y19.678
G01 F400 X96.935 Y19.678
G01 F400 X96.754 Y19.639
G01 F400 X96.585 Y19.564
G01 F400 X96.435 Y19.455
G01 F400 X96.311 Y19.318
G01 F400 X95.025 Y19.318
G01 F400 X94.901 Y19.455
G01 F400 X94.751 Y19.564
G01 F400 X94.582 Y19.639
G01 F400 X94.401 Y19.678
G01 F400 X93.739 Y19.678
G00 Z3.000
G00  X82.965 Y19.678
G01 F750 Z0
G01 F400 Z-0.100
G01 F400 X82.784 Y19.639
G01 F400 X82.615 Y19.564
G01 F400 X82.465 Y19.455
G01 F400 X82.341 Y19.317
G01 F400 X82.248 Y19.157
G01 F400 X82.191 Y18.980
G01 F400 X82.171 Y18.796
G01 F400 X82.191 Y18.612
G01 F400 X82.248 Y18.435
G01 F400 X82.341 Y18.275
G01 F400 X82.465 Y18.137
G01 F400 X82.615 Y18.028
G01 F400 X82.784 Y17.953
G01 F400 X82.965 Y17.914
G01 F400 X83.151 Y17.914
G01 F400 X83.332 Y17.953
G01 F400 X83.501 Y18.028
G01 F400 X83.651 Y18.137
G01 F400 X83.775 Y18.274
G01 F400 X85.315 Y18.274
G01 F400 X85.439 Y18.137
G01 F400 X85.589 Y18.028
G01 F400 X85.758 Y17.953
G01 F400 X85.939 Y17.914
G01 F400 X86.601 Y17.914
G01 F400 X86.782 Y17.953
G01 F400 X86.952 Y18.028
G01 F400 X87.102 Y18.137
G01 F400 X87.226 Y18.275
G01 F400 X87.318 Y18.435
G01 F400 X87.376 Y18.612
G01 F400 X87.395 Y18.796
G01 F400 X87.376 Y18.980
G01 F400 X87.318 Y19.157
G01 F400 X87.226 Y19.317
G01 F400 X87.102 Y19.455
G01 F400 X86.952 Y19.564
G01 F400 X86.782 Y19.639
G01 F400 X86.601 Y19.678
G01 F400 X85.939 Y19.678
G01 F400 X85.758 Y19.639
G01 F400 X85.589 Y19.564
G01 F400 X85.439 Y19.455
G01 F400 X85.315 Y19.318
G01 F400 X83.775 Y19.318
G01 F400 X83.651 Y19.455
G01 F400 X83.501 Y19.564
G01 F400 X83.332 Y19.639
G01 F400 X83.151 Y19.678
G01 F400 X82.965 Y19.678
G00 Z3.000
G00  X82.965 Y17.138
G01 F750 Z0
G01 F400 Z-0.100
G01 F400 X82.784 Y17.099
G01 F400 X82.615 Y17.024
G01 F400 X82.465 Y16.915
G01 F400 X82.341 Y16.777
G01 F400 X82.248 Y16.617
G01 F400 X82.191 Y16.440
G01 F400 X82.171 Y16.256
G01 F400 X82.191 Y16.072
G01 F400 X82.248 Y15.895
G01 F400 X82.341 Y15.735
G01 F400 X82.465 Y15.597
G01 F400 X82.615 Y15.488
G01 F400 X82.784 Y15.413
G01 F400 X82.965 Y15.374
G01 F400 X83.151 Y15.374
G01 F400 X83.332 Y15.413
G01 F400 X83.501 Y15.488
G01 F400 X83.651 Y15.597
G01 F400 X83.775 Y15.734
G01 F400 X85.315 Y15.734
G01 F400 X85.439 Y15.597
G01 F400 X85.589 Y15.488
G01 F400 X85.758 Y15.413
G01 F400 X85.939 Y15.374
G01 F400 X86.601 Y15.374
G01 F400 X86.782 Y15.413
G01 F400 X86.952 Y15.488
G01 F400 X87.102 Y15.597
G01 F400 X87.226 Y15.735
G01 F400 X87.318 Y15.895
G01 F400 X87.376 Y16.072
G01 F400 X87.395 Y16.256
G01 F400 X87.376 Y16.440
G01 F400 X87.318 Y16.617
G01 F400 X87.226 Y16.777
G01 F400 X87.102 Y16.915
G01 F400 X86.952 Y17.024
G01 F400 X86.782 Y17.099
G01 F400 X86.601 Y17.138
G01 F400 X85.939 Y17.138
G01 F400 X85.758 Y17.099
G01 F400 X85.589 Y17.024
G01 F400 X85.439 Y16.915
G01 F400 X85.315 Y16.778
G01 F400 X83.775 Y16.778
G01 F400 X83.651 Y16.915
G01 F400 X83.501 Y17.024
G01 F400 X83.332 Y17.099
G01 F400 X83.151 Y17.138
G01 F400 X82.965 Y17.138
G00 Z3.000
G00  X93.739 Y17.138
G01 F750 Z0
G01 F400 Z-0.100
G01 F400 X93.558 Y17.099
G01 F400 X93.389 Y17.024
G01 F400 X93.239 Y16.915
G01 F400 X93.115 Y16.777
G01 F400 X93.022 Y16.617
G01 F400 X92.965 Y16.440
G01 F400 X92.945 Y16.256
G01 F400 X92.965 Y16.072
G01 F400 X93.022 Y15.895
G01 F400 X93.115 Y15.735
G01 F400 X93.239 Y15.597
G01 F400 X93.389 Y15.488
G01 F400 X93.558 Y15.413
G01 F400 X93.739 Y15.374
G01 F400 X94.401 Y15.374
G01 F400 X94.582 Y15.413
G01 F400 X94.751 Y15.488
G01 F400 X94.901 Y15.597
G01 F400 X95.025 Y15.734
G01 F400 X96.311 Y15.734
G01 F400 X96.435 Y15.597
G01 F400 X96.585 Y15.488
G01 F400 X96.754 Y15.413
G01 F400 X96.935 Y15.374
G01 F400 X97.121 Y15.374
G01 F400 X97.302 Y15.413
G01 F400 X97.471 Y15.488
G01 F400 X97.621 Y15.597
G01 F400 X97.745 Y15.735
G01 F400 X97.838 Y15.895
G01 F400 X97.895 Y16.072
G01 F400 X97.915 Y16.256
G01 F400 X97.895 Y16.440
G01 F400 X97.838 Y16.617
G01 F400 X97.745 Y16.777
G01 F400 X97.621 Y16.915
G01 F400 X97.471 Y17.024
G01 F400 X97.302 Y17.099
G01 F400 X97.121 Y17.138
G01 F400 X96.935 Y17.138
G01 F400 X96.754 Y17.099
G01 F400 X96.585 Y17.024
G01 F400 X96.435 Y16.915
G01 F400 X96.311 Y16.778
G01 F400 X95.025 Y16.778
G01 F400 X94.901 Y16.915
G01 F400 X94.751 Y17.024
G01 F400 X94.582 Y17.099
G01 F400 X94.401 Y17.138
G01 F400 X93.739 Y17.138
G00 Z3.000
G00  X82.965 Y14.598
G01 F750 Z0
G01 F400 Z-0.100
G01 F400 X82.784 Y14.559
G01 F400 X82.615 Y14.484
G01 F400 X82.465 Y14.375
G01 F400 X82.341 Y14.237
G01 F400 X82.248 Y14.077
G01 F400 X82.191 Y13.900
G01 F400 X82.171 Y13.716
G01 F400 X82.191 Y13.532
G01 F400 X82.248 Y13.355
G01 F400 X82.341 Y13.195
G01 F400 X82.465 Y13.057
G01 F400 X82.615 Y12.948
G01 F400 X82.784 Y12.873
G01 F400 X82.965 Y12.834
G01 F400 X83.151 Y12.834
G01 F400 X83.332 Y12.873
G01 F400 X83.501 Y12.948
G01 F400 X83.651 Y13.057
G01 F400 X83.775 Y13.194
G01 F400 X85.315 Y13.194
G01 F400 X85.439 Y13.057
G01 F400 X85.589 Y12.948
G01 F400 X85.758 Y12.873
G01 F400 X85.939 Y12.834
G01 F400 X86.601 Y12.834
G01 F400 X86.782 Y12.873
G01 F400 X86.952 Y12.948
G01 F400 X87.102 Y13.057
G01 F400 X87.226 Y13.195
G01 F400 X87.318 Y13.355
G01 F400 X87.376 Y13.532
G01 F400 X87.395 Y13.716
G01 F400 X87.376 Y13.900
G01 F400 X87.318 Y14.077
G01 F400 X87.226 Y14.237
G01 F400 X87.102 Y14.375
G01 F400 X86.952 Y14.484
G01 F400 X86.782 Y14.559
G01 F400 X86.601 Y14.598
G01 F400 X85.939 Y14.598
G01 F400 X85.758 Y14.559
G01 F400 X85.589 Y14.484
G01 F400 X85.439 Y14.375
G01 F400 X85.315 Y14.238
G01 F400 X83.775 Y14.238
G01 F400 X83.651 Y14.375
G01 F400 X83.501 Y14.484
G01 F400 X83.332 Y14.559
G01 F400 X83.151 Y14.598
G01 F400 X82.965 Y14.598
G00 Z3.000
G00  X93.739 Y14.598
G01 F750 Z0
G01 F400 Z-0.100
G01 F400 X93.558 Y14.559
G01 F400 X93.389 Y14.484
G01 F400 X93.239 Y14.375
G01 F400 X93.115 Y14.237
G01 F400 X93.022 Y14.077
G01 F400 X92.965 Y13.900
G01 F400 X92.945 Y13.716
G01 F400 X92.965 Y13.532
G01 F400 X93.022 Y13.355
G01 F400 X93.115 Y13.195
G01 F400 X93.239 Y13.057
G01 F400 X93.389 Y12.948
G01 F400 X93.558 Y12.873
G01 F400 X93.739 Y12.834
G01 F400 X94.401 Y12.834
G01 F400 X94.582 Y12.873
G01 F400 X94.751 Y12.948
G01 F400 X94.901 Y13.057
G01 F400 X95.025 Y13.194
G01 F400 X96.311 Y13.194
G01 F400 X96.435 Y13.057
G01 F400 X96.585 Y12.948
G01 F400 X96.754 Y12.873
G01 F400 X96.935 Y12.834
G01 F400 X97.121 Y12.834
G01 F400 X97.302 Y12.873
G01 F400 X97.471 Y12.948
G01 F400 X97.621 Y13.057
G01 F400 X97.745 Y13.195
G01 F400 X97.838 Y13.355
G01 F400 X97.895 Y13.532
G01 F400 X97.915 Y13.716
G01 F400 X97.895 Y13.900
G01 F400 X97.838 Y14.077
G01 F400 X97.745 Y14.237
G01 F400 X97.621 Y14.375
G01 F400 X97.471 Y14.484
G01 F400 X97.302 Y14.559
G01 F400 X97.121 Y14.598
G01 F400 X96.935 Y14.598
G01 F400 X96.754 Y14.559
G01 F400 X96.585 Y14.484
G01 F400 X96.435 Y14.375
G01 F400 X96.311 Y14.238
G01 F400 X95.025 Y14.238
G01 F400 X94.901 Y14.375
G01 F400 X94.751 Y14.484
G01 F400 X94.582 Y14.559
G01 F400 X94.401 Y14.598
G01 F400 X93.739 Y14.598
G00 Z3.000
G00  X82.965 Y12.058
G01 F750 Z0
G01 F400 Z-0.100
G01 F400 X82.784 Y12.019
G01 F400 X82.615 Y11.944
G01 F400 X82.465 Y11.835
G01 F400 X82.341 Y11.697
G01 F400 X82.248 Y11.537
G01 F400 X82.191 Y11.360
G01 F400 X82.171 Y11.176
G01 F400 X82.191 Y10.992
G01 F400 X82.248 Y10.815
G01 F400 X82.341 Y10.655
G01 F400 X82.465 Y10.517
G01 F400 X82.615 Y10.408
G01 F400 X82.784 Y10.333
G01 F400 X82.965 Y10.294
G01 F400 X83.151 Y10.294
G01 F400 X83.332 Y10.333
G01 F400 X83.501 Y10.408
G01 F400 X83.651 Y10.517
G01 F400 X83.775 Y10.654
G01 F400 X85.315 Y10.654
G01 F400 X85.439 Y10.517
G01 F400 X85.589 Y10.408
G01 F400 X85.758 Y10.333
G01 F400 X85.939 Y10.294
G01 F400 X86.601 Y10.294
G01 F400 X86.782 Y10.333
G01 F400 X86.952 Y10.408
G01 F400 X87.102 Y10.517
G01 F400 X87.226 Y10.655
G01 F400 X87.318 Y10.815
G01 F400 X87.376 Y10.992
G01 F400 X87.395 Y11.176
G01 F400 X87.376 Y11.360
G01 F400 X87.318 Y11.537
G01 F400 X87.226 Y11.697
G01 F400 X87.102 Y11.835
G01 F400 X86.952 Y11.944
G01 F400 X86.782 Y12.019
G01 F400 X86.601 Y12.058
G01 F400 X85.939 Y12.058
G01 F400 X85.758 Y12.019
G01 F400 X85.589 Y11.944
G01 F400 X85.439 Y11.835
G01 F400 X85.315 Y11.698
G01 F400 X83.775 Y11.698
G01 F400 X83.651 Y11.835
G01 F400 X83.501 Y11.944
G01 F400 X83.332 Y12.019
G01 F400 X83.151 Y12.058
G01 F400 X82.965 Y12.058
G00 Z3.000
G00  X93.739 Y12.058
G01 F750 Z0
G01 F400 Z-0.100
G01 F400 X93.558 Y12.019
G01 F400 X93.389 Y11.944
G01 F400 X93.239 Y11.835
G01 F400 X93.115 Y11.697
G01 F400 X93.022 Y11.537
G01 F400 X92.965 Y11.360
G01 F400 X92.945 Y11.176
G01 F400 X92.965 Y10.992
G01 F400 X93.022 Y10.815
G01 F400 X93.115 Y10.655
G01 F400 X93.239 Y10.517
G01 F400 X93.389 Y10.408
G01 F400 X93.558 Y10.333
G01 F400 X93.739 Y10.294
G01 F400 X94.401 Y10.294
G01 F400 X94.582 Y10.333
G01 F400 X94.751 Y10.408
G01 F400 X94.901 Y10.517
G01 F400 X95.025 Y10.654
G01 F400 X96.311 Y10.654
G01 F400 X96.435 Y10.517
G01 F400 X96.585 Y10.408
G01 F400 X96.754 Y10.333
G01 F400 X96.935 Y10.294
G01 F400 X97.121 Y10.294
G01 F400 X97.302 Y10.333
G01 F400 X97.471 Y10.408
G01 F400 X97.621 Y10.517
G01 F400 X97.745 Y10.655
G01 F400 X97.838 Y10.815
G01 F400 X97.895 Y10.992
G01 F400 X97.915 Y11.176
G01 F400 X97.895 Y11.360
G01 F400 X97.838 Y11.537
G01 F400 X97.745 Y11.697
G01 F400 X97.621 Y11.835
G01 F400 X97.471 Y11.944
G01 F400 X97.302 Y12.019
G01 F400 X97.121 Y12.058
G01 F400 X96.935 Y12.058
G01 F400 X96.754 Y12.019
G01 F400 X96.585 Y11.944
G01 F400 X96.435 Y11.835
G01 F400 X96.311 Y11.698
G01 F400 X95.025 Y11.698
G01 F400 X94.901 Y11.835
G01 F400 X94.751 Y11.944
G01 F400 X94.582 Y12.019
G01 F400 X94.401 Y12.058
G01 F400 X93.739 Y12.058
G00 Z3.000
G00  X93.739 Y9.518
G01 F750 Z0
G01 F400 Z-0.100
G01 F400 X93.558 Y9.479
G01 F400 X93.389 Y9.404
G01 F400 X93.239 Y9.295
G01 F400 X93.115 Y9.157
G01 F400 X93.022 Y8.997
G01 F400 X92.965 Y8.820
G01 F400 X92.945 Y8.636
G01 F400 X92.965 Y8.452
G01 F400 X93.022 Y8.275
G01 F400 X93.115 Y8.115
G01 F400 X93.239 Y7.977
G01 F400 X93.389 Y7.868
G01 F400 X93.558 Y7.793
G01 F400 X93.739 Y7.754
G01 F400 X94.401 Y7.754
G01 F400 X94.582 Y7.793
G01 F400 X94.751 Y7.868
G01 F400 X94.901 Y7.977
G01 F400 X95.025 Y8.114
G01 F400 X96.311 Y8.114
G01 F400 X96.435 Y7.977
G01 F400 X96.585 Y7.868
G01 F400 X96.754 Y7.793
G01 F400 X96.935 Y7.754
G01 F400 X97.121 Y7.754
G01 F400 X97.302 Y7.793
G01 F400 X97.471 Y7.868
G01 F400 X97.621 Y7.977
G01 F400 X97.745 Y8.115
G01 F400 X97.838 Y8.275
G01 F400 X97.895 Y8.452
G01 F400 X97.915 Y8.636
G01 F400 X97.895 Y8.820
G01 F400 X97.838 Y8.997
G01 F400 X97.745 Y9.157
G01 F400 X97.621 Y9.295
G01 F400 X97.471 Y9.404
G01 F400 X97.302 Y9.479
G01 F400 X97.121 Y9.518
G01 F400 X96.935 Y9.518
G01 F400 X96.754 Y9.479
G01 F400 X96.585 Y9.404
G01 F400 X96.435 Y9.295
G01 F400 X96.311 Y9.158
G01 F400 X95.025 Y9.158
G01 F400 X94.901 Y9.295
G01 F400 X94.751 Y9.404
G01 F400 X94.582 Y9.479
G01 F400 X94.401 Y9.518
G01 F400 X93.739 Y9.518
G00 Z3.000
G00  X82.965 Y9.518
G01 F750 Z0
G01 F400 Z-0.100
G01 F400 X82.784 Y9.479
G01 F400 X82.615 Y9.404
G01 F400 X82.465 Y9.295
G01 F400 X82.341 Y9.157
G01 F400 X82.248 Y8.997
G01 F400 X82.191 Y8.820
G01 F400 X82.171 Y8.636
G01 F400 X82.191 Y8.452
G01 F400 X82.248 Y8.275
G01 F400 X82.341 Y8.115
G01 F400 X82.465 Y7.977
G01 F400 X82.615 Y7.868
G01 F400 X82.784 Y7.793
G01 F400 X82.965 Y7.754
G01 F400 X83.151 Y7.754
G01 F400 X83.332 Y7.793
G01 F400 X83.501 Y7.868
G01 F400 X83.651 Y7.977
G01 F400 X83.775 Y8.114
G01 F400 X85.315 Y8.114
G01 F400 X85.439 Y7.977
G01 F400 X85.589 Y7.868
G01 F400 X85.758 Y7.793
G01 F400 X85.939 Y7.754
G01 F400 X86.601 Y7.754
G01 F400 X86.782 Y7.793
G01 F400 X86.952 Y7.868
G01 F400 X87.102 Y7.977
G01 F400 X87.226 Y8.115
G01 F400 X87.318 Y8.275
G01 F400 X87.376 Y8.452
G01 F400 X87.395 Y8.636
G01 F400 X87.376 Y8.820
G01 F400 X87.318 Y8.997
G01 F400 X87.226 Y9.157
G01 F400 X87.102 Y9.295
G01 F400 X86.952 Y9.404
G01 F400 X86.782 Y9.479
G01 F400 X86.601 Y9.518
G01 F400 X85.939 Y9.518
G01 F400 X85.758 Y9.479
G01 F400 X85.589 Y9.404
G01 F400 X85.439 Y9.295
G01 F400 X85.315 Y9.158
G01 F400 X83.775 Y9.158
G01 F400 X83.651 Y9.295
G01 F400 X83.501 Y9.404
G01 F400 X83.332 Y9.479
G01 F400 X83.151 Y9.518
G01 F400 X82.965 Y9.518
G00 Z3.000
G00  X77.679 Y8.117
G01 F750 Z0
G01 F400 Z-0.100
G01 F400 X77.342 Y8.045
G01 F400 X77.027 Y7.905
G01 F400 X76.748 Y7.702
G01 F400 X76.517 Y7.446
G01 F400 X76.345 Y7.148
G01 F400 X76.238 Y6.820
G01 F400 X76.202 Y6.477
G01 F400 X76.238 Y6.134
G01 F400 X76.345 Y5.806
G01 F400 X76.517 Y5.508
G01 F400 X76.748 Y5.252
G01 F400 X77.027 Y5.049
G01 F400 X77.342 Y4.909
G01 F400 X77.679 Y4.837
G01 F400 X78.023 Y4.837
G01 F400 X78.361 Y4.909
G01 F400 X78.675 Y5.049
G01 F400 X78.954 Y5.252
G01 F400 X79.185 Y5.508
G01 F400 X79.357 Y5.806
G01 F400 X79.464 Y6.134
G01 F400 X79.500 Y6.477
G01 F400 X79.464 Y6.820
G01 F400 X79.357 Y7.148
G01 F400 X79.185 Y7.446
G01 F400 X78.954 Y7.702
G01 F400 X78.675 Y7.905
G01 F400 X78.361 Y8.045
G01 F400 X78.023 Y8.117
G01 F400 X77.679 Y8.117
G00 Z3.000
G00  X2.495 Y8.117
G01 F750 Z0
G01 F400 Z-0.100
G01 F400 X2.158 Y8.045
G01 F400 X1.843 Y7.905
G01 F400 X1.564 Y7.702
G01 F400 X1.333 Y7.446
G01 F400 X1.161 Y7.148
G01 F400 X1.054 Y6.820
G01 F400 X1.018 Y6.477
G01 F400 X1.054 Y6.134
G01 F400 X1.161 Y5.806
G01 F400 X1.333 Y5.508
G01 F400 X1.564 Y5.252
G01 F400 X1.843 Y5.049
G01 F400 X2.158 Y4.909
G01 F400 X2.495 Y4.837
G01 F400 X2.839 Y4.837
G01 F400 X3.177 Y4.909
G01 F400 X3.491 Y5.049
G01 F400 X3.770 Y5.252
G01 F400 X4.001 Y5.508
G01 F400 X4.173 Y5.806
G01 F400 X4.280 Y6.134
G01 F400 X4.316 Y6.477
G01 F400 X4.280 Y6.820
G01 F400 X4.173 Y7.148
G01 F400 X4.001 Y7.446
G01 F400 X3.770 Y7.702
G01 F400 X3.491 Y7.905
G01 F400 X3.177 Y8.045
G01 F400 X2.839 Y8.117
G01 F400 X2.495 Y8.117
G00 Z3.000
G00  X82.965 Y6.978
G01 F750 Z0
G01 F400 Z-0.100
G01 F400 X82.784 Y6.939
G01 F400 X82.615 Y6.864
G01 F400 X82.465 Y6.755
G01 F400 X82.341 Y6.617
G01 F400 X82.248 Y6.457
G01 F400 X82.191 Y6.280
G01 F400 X82.171 Y6.096
G01 F400 X82.191 Y5.912
G01 F400 X82.248 Y5.735
G01 F400 X82.341 Y5.575
G01 F400 X82.465 Y5.437
G01 F400 X82.615 Y5.328
G01 F400 X82.784 Y5.253
G01 F400 X82.965 Y5.214
G01 F400 X83.151 Y5.214
G01 F400 X83.332 Y5.253
G01 F400 X83.501 Y5.328
G01 F400 X83.651 Y5.437
G01 F400 X83.775 Y5.574
G01 F400 X85.315 Y5.574
G01 F400 X85.439 Y5.437
G01 F400 X85.589 Y5.328
G01 F400 X85.758 Y5.253
G01 F400 X85.939 Y5.214
G01 F400 X86.601 Y5.214
G01 F400 X86.782 Y5.253
G01 F400 X86.952 Y5.328
G01 F400 X87.102 Y5.437
G01 F400 X87.226 Y5.575
G01 F400 X87.318 Y5.735
G01 F400 X87.376 Y5.912
G01 F400 X87.395 Y6.096
G01 F400 X87.376 Y6.280
G01 F400 X87.318 Y6.457
G01 F400 X87.226 Y6.617
G01 F400 X87.102 Y6.755
G01 F400 X86.952 Y6.864
G01 F400 X86.782 Y6.939
G01 F400 X86.601 Y6.978
G01 F400 X85.939 Y6.978
G01 F400 X85.758 Y6.939
G01 F400 X85.589 Y6.864
G01 F400 X85.439 Y6.755
G01 F400 X85.315 Y6.618
G01 F400 X83.775 Y6.618
G01 F400 X83.651 Y6.755
G01 F400 X83.501 Y6.864
G01 F400 X83.332 Y6.939
G01 F400 X83.151 Y6.978
G01 F400 X82.965 Y6.978
G00 Z3.000
G00  X93.739 Y6.978
G01 F750 Z0
G01 F400 Z-0.100
G01 F400 X93.558 Y6.939
G01 F400 X93.389 Y6.864
G01 F400 X93.239 Y6.755
G01 F400 X93.115 Y6.617
G01 F400 X93.022 Y6.457
G01 F400 X92.965 Y6.280
G01 F400 X92.945 Y6.096
G01 F400 X92.965 Y5.912
G01 F400 X93.022 Y5.735
G01 F400 X93.115 Y5.575
G01 F400 X93.239 Y5.437
G01 F400 X93.389 Y5.328
G01 F400 X93.558 Y5.253
G01 F400 X93.739 Y5.214
G01 F400 X94.401 Y5.214
G01 F400 X94.582 Y5.253
G01 F400 X94.751 Y5.328
G01 F400 X94.901 Y5.437
G01 F400 X95.025 Y5.574
G01 F400 X96.311 Y5.574
G01 F400 X96.435 Y5.437
G01 F400 X96.585 Y5.328
G01 F400 X96.754 Y5.253
G01 F400 X96.935 Y5.214
G01 F400 X97.121 Y5.214
G01 F400 X97.302 Y5.253
G01 F400 X97.471 Y5.328
G01 F400 X97.621 Y5.437
G01 F400 X97.745 Y5.575
G01 F400 X97.838 Y5.735
G01 F400 X97.895 Y5.912
G01 F400 X97.915 Y6.096
G01 F400 X97.895 Y6.280
G01 F400 X97.838 Y6.457
G01 F400 X97.745 Y6.617
G01 F400 X97.621 Y6.755
G01 F400 X97.471 Y6.864
G01 F400 X97.302 Y6.939
G01 F400 X97.121 Y6.978
G01 F400 X96.935 Y6.978
G01 F400 X96.754 Y6.939
G01 F400 X96.585 Y6.864
G01 F400 X96.435 Y6.755
G01 F400 X96.311 Y6.618
G01 F400 X95.025 Y6.618
G01 F400 X94.901 Y6.755
G01 F400 X94.751 Y6.864
G01 F400 X94.582 Y6.939
G01 F400 X94.401 Y6.978
G01 F400 X93.739 Y6.978
G00 Z3.000
G00  X49.591 Y52.360
G01 F750 Z0
G01 F400 Z-0.100
G01 F400 X49.315 Y52.301
G01 F400 X49.057 Y52.187
G01 F400 X48.829 Y52.021
G01 F400 X48.640 Y51.811
G01 F400 X48.499 Y51.567
G01 F400 X48.412 Y51.299
G01 F400 X48.383 Y51.018
G01 F400 X48.412 Y50.737
G01 F400 X48.499 Y50.469
G01 F400 X48.640 Y50.225
G01 F400 X48.829 Y50.015
G01 F400 X49.057 Y49.849
G01 F400 X49.315 Y49.735
G01 F400 X49.591 Y49.676
G01 F400 X49.873 Y49.676
G01 F400 X50.149 Y49.735
G01 F400 X50.407 Y49.849
G01 F400 X50.635 Y50.015
G01 F400 X50.824 Y50.225
G01 F400 X50.965 Y50.469
G01 F400 X51.052 Y50.737
G01 F400 X51.081 Y51.018
G01 F400 X51.052 Y51.299
G01 F400 X50.965 Y51.567
G01 F400 X50.824 Y51.811
G01 F400 X50.635 Y52.021
G01 F400 X50.407 Y52.187
G01 F400 X50.149 Y52.301
G01 F400 X49.873 Y52.360
G01 F400 X49.591 Y52.360
G00 Z3.000
G00  X43.091 Y52.360
G01 F750 Z0
G01 F400 Z-0.100
G01 F400 X42.815 Y52.301
G01 F400 X42.557 Y52.187
G01 F400 X42.329 Y52.021
G01 F400 X42.140 Y51.811
G01 F400 X42.118 Y51.772
G01 F400 X18.809 Y51.763
G01 F400 X18.655 Y51.731
G01 F400 X18.512 Y51.667
G01 F400 X18.393 Y51.580
G01 F400 X18.294 Y51.482
G01 F400 X18.175 Y51.507
G01 F400 X17.893 Y51.507
G01 F400 X17.617 Y51.448
G01 F400 X17.359 Y51.334
G01 F400 X17.131 Y51.168
G01 F400 X16.942 Y50.958
G01 F400 X16.801 Y50.714
G01 F400 X16.714 Y50.446
G01 F400 X16.702 Y50.327
G01 F400 X9.976 Y50.327
G01 F400 X9.950 Y50.374
G01 F400 X9.760 Y50.585
G01 F400 X9.532 Y50.750
G01 F400 X9.274 Y50.865
G01 F400 X8.998 Y50.924
G01 F400 X6.116 Y50.924
G01 F400 X5.840 Y50.865
G01 F400 X5.583 Y50.750
G01 F400 X5.354 Y50.585
G01 F400 X5.166 Y50.375
G01 F400 X5.025 Y50.131
G01 F400 X4.937 Y49.862
G01 F400 X4.908 Y49.582
G01 F400 X4.937 Y49.301
G01 F400 X5.025 Y49.033
G01 F400 X5.166 Y48.789
G01 F400 X5.354 Y48.579
G01 F400 X5.583 Y48.413
G01 F400 X5.840 Y48.299
G01 F400 X6.116 Y48.240
G01 F400 X8.998 Y48.240
G01 F400 X9.274 Y48.299
G01 F400 X9.532 Y48.413
G01 F400 X9.760 Y48.579
G01 F400 X9.949 Y48.789
G01 F400 X9.972 Y48.828
G01 F400 X17.529 Y48.837
G01 F400 X17.679 Y48.868
G01 F400 X17.893 Y48.823
G01 F400 X18.175 Y48.823
G01 F400 X18.451 Y48.882
G01 F400 X18.709 Y48.996
G01 F400 X18.937 Y49.162
G01 F400 X19.126 Y49.372
G01 F400 X19.267 Y49.616
G01 F400 X19.354 Y49.884
G01 F400 X19.383 Y50.165
G01 F400 X19.372 Y50.273
G01 F400 X42.113 Y50.273
G01 F400 X42.139 Y50.226
G01 F400 X42.329 Y50.015
G01 F400 X42.557 Y49.849
G01 F400 X42.815 Y49.735
G01 F400 X43.091 Y49.676
G01 F400 X43.373 Y49.676
G01 F400 X43.649 Y49.735
G01 F400 X43.907 Y49.849
G01 F400 X44.135 Y50.015
G01 F400 X44.324 Y50.225
G01 F400 X44.465 Y50.469
G01 F400 X44.552 Y50.737
G01 F400 X44.581 Y51.018
G01 F400 X44.552 Y51.299
G01 F400 X44.465 Y51.567
G01 F400 X44.324 Y51.811
G01 F400 X44.135 Y52.021
G01 F400 X43.907 Y52.187
G01 F400 X43.649 Y52.301
G01 F400 X43.373 Y52.360
G01 F400 X43.091 Y52.360
G00 Z3.000
G00  X2.716 Y49.024
G01 F750 Z0
G01 F400 Z-0.100
G01 F400 X2.440 Y48.965
G01 F400 X2.182 Y48.851
G01 F400 X1.954 Y48.685
G01 F400 X1.765 Y48.475
G01 F400 X1.624 Y48.231
G01 F400 X1.537 Y47.963
G01 F400 X1.510 Y47.700
G01 F400 X1.510 Y45.064
G01 F400 X1.537 Y44.801
G01 F400 X1.624 Y44.533
G01 F400 X1.765 Y44.289
G01 F400 X1.954 Y44.079
G01 F400 X2.182 Y43.913
G01 F400 X2.440 Y43.799
G01 F400 X2.716 Y43.740
G01 F400 X2.998 Y43.740
G01 F400 X3.274 Y43.799
G01 F400 X3.532 Y43.913
G01 F400 X3.760 Y44.079
G01 F400 X3.949 Y44.289
G01 F400 X4.090 Y44.533
G01 F400 X4.177 Y44.801
G01 F400 X4.205 Y45.064
G01 F400 X4.205 Y47.700
G01 F400 X4.177 Y47.963
G01 F400 X4.090 Y48.231
G01 F400 X3.949 Y48.475
G01 F400 X3.760 Y48.685
G01 F400 X3.532 Y48.851
G01 F400 X3.274 Y48.965
G01 F400 X2.998 Y49.024
G01 F400 X2.716 Y49.024
G00 Z3.000
G00  X49.591 Y47.860
G01 F750 Z0
G01 F400 Z-0.100
G01 F400 X49.315 Y47.801
G01 F400 X49.057 Y47.687
G01 F400 X48.829 Y47.521
G01 F400 X48.640 Y47.311
G01 F400 X48.499 Y47.067
G01 F400 X48.412 Y46.799
G01 F400 X48.383 Y46.518
G01 F400 X48.412 Y46.238
G01 F400 X48.499 Y45.969
G01 F400 X48.640 Y45.725
G01 F400 X48.829 Y45.515
G01 F400 X49.057 Y45.349
G01 F400 X49.315 Y45.235
G01 F400 X49.591 Y45.176
G01 F400 X49.873 Y45.176
G01 F400 X50.149 Y45.235
G01 F400 X50.407 Y45.349
G01 F400 X50.635 Y45.515
G01 F400 X50.824 Y45.725
G01 F400 X50.965 Y45.969
G01 F400 X51.052 Y46.238
G01 F400 X51.081 Y46.518
G01 F400 X51.052 Y46.799
G01 F400 X50.965 Y47.067
G01 F400 X50.824 Y47.311
G01 F400 X50.635 Y47.521
G01 F400 X50.407 Y47.687
G01 F400 X50.149 Y47.801
G01 F400 X49.873 Y47.860
G01 F400 X49.591 Y47.860
G00 Z3.000
G00  X43.091 Y47.860
G01 F750 Z0
G01 F400 Z-0.100
G01 F400 X42.815 Y47.801
G01 F400 X42.557 Y47.687
G01 F400 X42.329 Y47.521
G01 F400 X42.140 Y47.311
G01 F400 X41.999 Y47.067
G01 F400 X41.912 Y46.799
G01 F400 X41.883 Y46.518
G01 F400 X41.912 Y46.238
G01 F400 X41.999 Y45.969
G01 F400 X42.140 Y45.725
G01 F400 X42.329 Y45.515
G01 F400 X42.557 Y45.349
G01 F400 X42.815 Y45.235
G01 F400 X43.091 Y45.176
G01 F400 X43.373 Y45.176
G01 F400 X43.649 Y45.235
G01 F400 X43.907 Y45.349
G01 F400 X44.135 Y45.515
G01 F400 X44.324 Y45.725
G01 F400 X44.465 Y45.969
G01 F400 X44.552 Y46.238
G01 F400 X44.581 Y46.518
G01 F400 X44.552 Y46.799
G01 F400 X44.465 Y47.067
G01 F400 X44.324 Y47.311
G01 F400 X44.135 Y47.521
G01 F400 X43.907 Y47.687
G01 F400 X43.649 Y47.801
G01 F400 X43.373 Y47.860
G01 F400 X43.091 Y47.860
G00 Z3.000
G00  X17.893 Y47.570
G01 F750 Z0
G01 F400 Z-0.100
G01 F400 X17.617 Y47.511
G01 F400 X17.359 Y47.397
G01 F400 X17.131 Y47.231
G01 F400 X16.942 Y47.021
G01 F400 X16.801 Y46.777
G01 F400 X16.714 Y46.509
G01 F400 X16.685 Y46.228
G01 F400 X16.713 Y45.963
G01 F400 X14.877 Y44.128
G01 F400 X9.976 Y44.128
G01 F400 X9.950 Y44.174
G01 F400 X9.760 Y44.385
G01 F400 X9.532 Y44.551
G01 F400 X9.274 Y44.666
G01 F400 X8.998 Y44.724
G01 F400 X6.116 Y44.724
G01 F400 X5.840 Y44.666
G01 F400 X5.582 Y44.551
G01 F400 X5.354 Y44.385
G01 F400 X5.165 Y44.175
G01 F400 X5.024 Y43.931
G01 F400 X4.937 Y43.663
G01 F400 X4.908 Y43.382
G01 F400 X4.937 Y43.102
G01 F400 X5.024 Y42.833
G01 F400 X5.165 Y42.589
G01 F400 X5.354 Y42.379
G01 F400 X5.582 Y42.214
G01 F400 X5.840 Y42.099
G01 F400 X6.116 Y42.040
G01 F400 X8.998 Y42.040
G01 F400 X9.274 Y42.099
G01 F400 X9.532 Y42.214
G01 F400 X9.760 Y42.379
G01 F400 X9.949 Y42.589
G01 F400 X9.971 Y42.628
G01 F400 X15.267 Y42.637
G01 F400 X15.420 Y42.669
G01 F400 X15.563 Y42.733
G01 F400 X15.682 Y42.820
G01 F400 X17.774 Y44.911
G01 F400 X17.893 Y44.886
G01 F400 X18.175 Y44.886
G01 F400 X18.294 Y44.911
G01 F400 X20.334 Y42.872
G01 F400 X20.453 Y42.785
G01 F400 X20.596 Y42.721
G01 F400 X20.750 Y42.689
G01 F400 X23.799 Y42.689
G01 F400 X23.806 Y42.676
G01 F400 X23.986 Y42.476
G01 F400 X24.204 Y42.318
G01 F400 X24.451 Y42.208
G01 F400 X24.714 Y42.152
G01 F400 X24.984 Y42.152
G01 F400 X25.247 Y42.208
G01 F400 X25.494 Y42.318
G01 F400 X25.712 Y42.476
G01 F400 X25.892 Y42.676
G01 F400 X26.027 Y42.910
G01 F400 X26.110 Y43.166
G01 F400 X26.138 Y43.434
G01 F400 X26.110 Y43.702
G01 F400 X26.027 Y43.958
G01 F400 X25.892 Y44.192
G01 F400 X25.712 Y44.392
G01 F400 X25.494 Y44.550
G01 F400 X25.247 Y44.660
G01 F400 X24.984 Y44.716
G01 F400 X24.714 Y44.716
G01 F400 X24.451 Y44.660
G01 F400 X24.204 Y44.550
G01 F400 X23.986 Y44.392
G01 F400 X23.806 Y44.192
G01 F400 X23.799 Y44.179
G01 F400 X21.139 Y44.179
G01 F400 X19.355 Y45.963
G01 F400 X19.383 Y46.228
G01 F400 X19.354 Y46.509
G01 F400 X19.267 Y46.777
G01 F400 X19.126 Y47.021
G01 F400 X18.937 Y47.231
G01 F400 X18.709 Y47.397
G01 F400 X18.451 Y47.511
G01 F400 X18.175 Y47.570
G01 F400 X17.893 Y47.570
G00 Z3.000
G00  X68.719 Y46.432
G01 F750 Z0
G01 F400 Z-0.100
G01 F400 X68.494 Y46.385
G01 F400 X68.284 Y46.291
G01 F400 X68.098 Y46.156
G01 F400 X67.945 Y45.985
G01 F400 X67.830 Y45.786
G01 F400 X67.759 Y45.568
G01 F400 X67.735 Y45.339
G01 F400 X67.759 Y45.110
G01 F400 X67.830 Y44.892
G01 F400 X67.945 Y44.693
G01 F400 X68.098 Y44.522
G01 F400 X68.284 Y44.387
G01 F400 X68.494 Y44.293
G01 F400 X68.719 Y44.246
G01 F400 X68.949 Y44.246
G01 F400 X69.174 Y44.293
G01 F400 X69.384 Y44.387
G01 F400 X69.570 Y44.522
G01 F400 X69.723 Y44.693
G01 F400 X69.838 Y44.892
G01 F400 X69.909 Y45.110
G01 F400 X69.933 Y45.339
G01 F400 X69.909 Y45.568
G01 F400 X69.838 Y45.786
G01 F400 X69.723 Y45.985
G01 F400 X69.570 Y46.156
G01 F400 X69.384 Y46.291
G01 F400 X69.174 Y46.385
G01 F400 X68.949 Y46.432
G01 F400 X68.719 Y46.432
G00 Z3.000
G00  X63.639 Y46.432
G01 F750 Z0
G01 F400 Z-0.100
G01 F400 X63.414 Y46.385
G01 F400 X63.204 Y46.291
G01 F400 X63.018 Y46.156
G01 F400 X62.865 Y45.985
G01 F400 X62.750 Y45.786
G01 F400 X62.679 Y45.568
G01 F400 X62.655 Y45.339
G01 F400 X62.679 Y45.110
G01 F400 X62.750 Y44.892
G01 F400 X62.865 Y44.693
G01 F400 X63.007 Y44.535
G01 F400 X63.007 Y37.956
G01 F400 X47.492 Y37.956
G01 F400 X47.461 Y38.012
G01 F400 X47.269 Y38.226
G01 F400 X47.038 Y38.393
G01 F400 X46.777 Y38.510
G01 F400 X46.498 Y38.569
G01 F400 X46.212 Y38.569
G01 F400 X45.933 Y38.510
G01 F400 X45.672 Y38.393
G01 F400 X45.441 Y38.226
G01 F400 X45.250 Y38.014
G01 F400 X45.108 Y37.766
G01 F400 X45.085 Y37.697
G01 F400 X45.062 Y37.766
G01 F400 X44.920 Y38.014
G01 F400 X44.729 Y38.226
G01 F400 X44.498 Y38.393
G01 F400 X44.237 Y38.510
G01 F400 X43.958 Y38.569
G01 F400 X43.672 Y38.569
G01 F400 X43.393 Y38.510
G01 F400 X43.132 Y38.393
G01 F400 X42.901 Y38.226
G01 F400 X42.710 Y38.014
G01 F400 X42.568 Y37.766
G01 F400 X42.545 Y37.697
G01 F400 X42.522 Y37.766
G01 F400 X42.380 Y38.014
G01 F400 X42.189 Y38.226
G01 F400 X41.958 Y38.393
G01 F400 X41.697 Y38.510
G01 F400 X41.418 Y38.569
G01 F400 X41.132 Y38.569
G01 F400 X40.853 Y38.510
G01 F400 X40.592 Y38.393
G01 F400 X40.361 Y38.226
G01 F400 X40.170 Y38.014
G01 F400 X40.028 Y37.766
G01 F400 X40.005 Y37.697
G01 F400 X39.982 Y37.766
G01 F400 X39.840 Y38.014
G01 F400 X39.649 Y38.226
G01 F400 X39.418 Y38.393
G01 F400 X39.157 Y38.510
G01 F400 X38.878 Y38.569
G01 F400 X38.592 Y38.569
G01 F400 X38.313 Y38.510
G01 F400 X38.052 Y38.393
G01 F400 X37.821 Y38.226
G01 F400 X37.630 Y38.014
G01 F400 X37.488 Y37.766
G01 F400 X37.465 Y37.697
G01 F400 X37.442 Y37.766
G01 F400 X37.300 Y38.014
G01 F400 X37.109 Y38.226
G01 F400 X36.878 Y38.393
G01 F400 X36.617 Y38.510
G01 F400 X36.338 Y38.569
G01 F400 X36.052 Y38.569
G01 F400 X35.773 Y38.510
G01 F400 X35.512 Y38.393
G01 F400 X35.281 Y38.226
G01 F400 X35.090 Y38.014
G01 F400 X34.948 Y37.766
G01 F400 X34.925 Y37.697
G01 F400 X34.902 Y37.766
G01 F400 X34.817 Y37.914
G01 F400 X40.298 Y43.395
G01 F400 X60.112 Y43.395
G01 F400 X60.265 Y43.428
G01 F400 X60.408 Y43.492
G01 F400 X60.535 Y43.584
G01 F400 X60.640 Y43.700
G01 F400 X60.718 Y43.836
G01 F400 X60.767 Y43.985
G01 F400 X60.783 Y44.141
G01 F400 X60.767 Y44.296
G01 F400 X60.718 Y44.446
G01 F400 X60.640 Y44.581
G01 F400 X60.535 Y44.698
G01 F400 X60.408 Y44.790
G01 F400 X60.265 Y44.853
G01 F400 X60.112 Y44.886
G01 F400 X39.909 Y44.886
G01 F400 X39.755 Y44.853
G01 F400 X39.612 Y44.790
G01 F400 X39.493 Y44.703
G01 F400 X33.318 Y38.528
G01 F400 X33.233 Y38.510
G01 F400 X32.972 Y38.393
G01 F400 X32.741 Y38.226
G01 F400 X32.550 Y38.014
G01 F400 X32.408 Y37.766
G01 F400 X32.385 Y37.697
G01 F400 X32.362 Y37.766
G01 F400 X32.220 Y38.014
G01 F400 X32.029 Y38.226
G01 F400 X31.798 Y38.393
G01 F400 X31.537 Y38.510
G01 F400 X31.258 Y38.569
G01 F400 X30.972 Y38.569
G01 F400 X30.693 Y38.510
G01 F400 X30.432 Y38.393
G01 F400 X30.201 Y38.226
G01 F400 X30.010 Y38.014
G01 F400 X29.868 Y37.766
G01 F400 X29.845 Y37.697
G01 F400 X29.822 Y37.766
G01 F400 X29.680 Y38.014
G01 F400 X29.489 Y38.226
G01 F400 X29.258 Y38.393
G01 F400 X28.997 Y38.510
G01 F400 X28.718 Y38.569
G01 F400 X28.432 Y38.569
G01 F400 X28.153 Y38.510
G01 F400 X27.892 Y38.393
G01 F400 X27.661 Y38.226
G01 F400 X27.470 Y38.014
G01 F400 X27.328 Y37.766
G01 F400 X27.305 Y37.697
G01 F400 X27.282 Y37.766
G01 F400 X27.140 Y38.014
G01 F400 X26.949 Y38.226
G01 F400 X26.718 Y38.393
G01 F400 X26.457 Y38.510
G01 F400 X26.178 Y38.569
G01 F400 X25.892 Y38.569
G01 F400 X25.613 Y38.510
G01 F400 X25.352 Y38.393
G01 F400 X25.121 Y38.226
G01 F400 X24.930 Y38.014
G01 F400 X24.788 Y37.766
G01 F400 X24.765 Y37.697
G01 F400 X24.742 Y37.766
G01 F400 X24.600 Y38.014
G01 F400 X24.409 Y38.226
G01 F400 X24.178 Y38.393
G01 F400 X23.917 Y38.510
G01 F400 X23.638 Y38.569
G01 F400 X23.352 Y38.569
G01 F400 X23.073 Y38.510
G01 F400 X22.812 Y38.393
G01 F400 X22.581 Y38.226
G01 F400 X22.390 Y38.014
G01 F400 X22.248 Y37.766
G01 F400 X22.225 Y37.697
G01 F400 X22.202 Y37.766
G01 F400 X22.060 Y38.014
G01 F400 X21.869 Y38.226
G01 F400 X21.638 Y38.393
G01 F400 X21.377 Y38.510
G01 F400 X21.098 Y38.569
G01 F400 X20.812 Y38.569
G01 F400 X20.533 Y38.510
G01 F400 X20.272 Y38.393
G01 F400 X20.041 Y38.226
G01 F400 X19.850 Y38.014
G01 F400 X19.708 Y37.766
G01 F400 X19.685 Y37.697
G01 F400 X19.662 Y37.766
G01 F400 X19.520 Y38.014
G01 F400 X19.329 Y38.226
G01 F400 X19.098 Y38.393
G01 F400 X18.837 Y38.510
G01 F400 X18.558 Y38.569
G01 F400 X18.272 Y38.569
G01 F400 X17.993 Y38.510
G01 F400 X17.732 Y38.393
G01 F400 X17.501 Y38.226
G01 F400 X17.310 Y38.014
G01 F400 X17.168 Y37.766
G01 F400 X17.145 Y37.697
G01 F400 X17.122 Y37.766
G01 F400 X16.980 Y38.014
G01 F400 X16.789 Y38.226
G01 F400 X16.558 Y38.393
G01 F400 X16.297 Y38.510
G01 F400 X16.018 Y38.569
G01 F400 X15.732 Y38.569
G01 F400 X15.453 Y38.510
G01 F400 X15.192 Y38.393
G01 F400 X14.961 Y38.226
G01 F400 X14.770 Y38.014
G01 F400 X14.628 Y37.766
G01 F400 X14.605 Y37.697
G01 F400 X14.582 Y37.766
G01 F400 X14.440 Y38.014
G01 F400 X14.249 Y38.226
G01 F400 X14.018 Y38.393
G01 F400 X13.757 Y38.510
G01 F400 X13.478 Y38.569
G01 F400 X13.192 Y38.569
G01 F400 X12.913 Y38.510
G01 F400 X12.652 Y38.393
G01 F400 X12.421 Y38.226
G01 F400 X12.230 Y38.014
G01 F400 X12.088 Y37.766
G01 F400 X12.065 Y37.697
G01 F400 X12.042 Y37.766
G01 F400 X11.900 Y38.014
G01 F400 X11.709 Y38.226
G01 F400 X11.478 Y38.393
G01 F400 X11.217 Y38.510
G01 F400 X10.938 Y38.569
G01 F400 X10.652 Y38.569
G01 F400 X10.373 Y38.510
G01 F400 X10.112 Y38.393
G01 F400 X9.881 Y38.226
G01 F400 X9.690 Y38.014
G01 F400 X9.619 Y37.889
G01 F400 X9.619 Y38.575
G01 F400 X6.892 Y38.575
G01 F400 X6.892 Y35.848
G01 F400 X9.619 Y35.848
G01 F400 X9.619 Y36.533
G01 F400 X9.690 Y36.409
G01 F400 X9.881 Y36.196
G01 F400 X10.112 Y36.029
G01 F400 X10.373 Y35.913
G01 F400 X10.652 Y35.853
G01 F400 X10.938 Y35.853
G01 F400 X11.217 Y35.913
G01 F400 X11.478 Y36.029
G01 F400 X11.709 Y36.196
G01 F400 X11.900 Y36.409
G01 F400 X12.042 Y36.656
G01 F400 X12.065 Y36.725
G01 F400 X12.088 Y36.656
G01 F400 X12.230 Y36.409
G01 F400 X12.421 Y36.196
G01 F400 X12.652 Y36.029
G01 F400 X12.913 Y35.913
G01 F400 X13.192 Y35.853
G01 F400 X13.478 Y35.853
G01 F400 X13.757 Y35.913
G01 F400 X14.018 Y36.029
G01 F400 X14.249 Y36.196
G01 F400 X14.440 Y36.409
G01 F400 X14.582 Y36.656
G01 F400 X14.605 Y36.725
G01 F400 X14.628 Y36.656
G01 F400 X14.770 Y36.409
G01 F400 X14.961 Y36.196
G01 F400 X15.192 Y36.029
G01 F400 X15.453 Y35.913
G01 F400 X15.732 Y35.853
G01 F400 X16.018 Y35.853
G01 F400 X16.297 Y35.913
G01 F400 X16.558 Y36.029
G01 F400 X16.789 Y36.196
G01 F400 X16.980 Y36.409
G01 F400 X17.122 Y36.656
G01 F400 X17.145 Y36.725
G01 F400 X17.168 Y36.656
G01 F400 X17.310 Y36.409
G01 F400 X17.501 Y36.196
G01 F400 X17.732 Y36.029
G01 F400 X17.993 Y35.913
G01 F400 X18.272 Y35.853
G01 F400 X18.558 Y35.853
G01 F400 X18.837 Y35.913
G01 F400 X19.098 Y36.029
G01 F400 X19.329 Y36.196
G01 F400 X19.520 Y36.409
G01 F400 X19.662 Y36.656
G01 F400 X19.685 Y36.725
G01 F400 X19.708 Y36.656
G01 F400 X19.850 Y36.409
G01 F400 X20.041 Y36.196
G01 F400 X20.272 Y36.029
G01 F400 X20.533 Y35.913
G01 F400 X20.812 Y35.853
G01 F400 X21.098 Y35.853
G01 F400 X21.377 Y35.913
G01 F400 X21.638 Y36.029
G01 F400 X21.869 Y36.196
G01 F400 X22.060 Y36.409
G01 F400 X22.202 Y36.656
G01 F400 X22.225 Y36.725
G01 F400 X22.248 Y36.656
G01 F400 X22.390 Y36.409
G01 F400 X22.581 Y36.196
G01 F400 X22.812 Y36.029
G01 F400 X23.073 Y35.913
G01 F400 X23.352 Y35.853
G01 F400 X23.638 Y35.853
G01 F400 X23.917 Y35.913
G01 F400 X24.178 Y36.029
G01 F400 X24.409 Y36.196
G01 F400 X24.600 Y36.409
G01 F400 X24.742 Y36.656
G01 F400 X24.765 Y36.725
G01 F400 X24.788 Y36.656
G01 F400 X24.930 Y36.409
G01 F400 X25.121 Y36.196
G01 F400 X25.352 Y36.029
G01 F400 X25.613 Y35.913
G01 F400 X25.892 Y35.853
G01 F400 X26.178 Y35.853
G01 F400 X26.457 Y35.913
G01 F400 X26.718 Y36.029
G01 F400 X26.949 Y36.196
G01 F400 X27.140 Y36.409
G01 F400 X27.282 Y36.656
G01 F400 X27.305 Y36.725
G01 F400 X27.328 Y36.656
G01 F400 X27.470 Y36.409
G01 F400 X27.661 Y36.196
G01 F400 X27.892 Y36.029
G01 F400 X28.153 Y35.913
G01 F400 X28.432 Y35.853
G01 F400 X28.718 Y35.853
G01 F400 X28.997 Y35.913
G01 F400 X29.258 Y36.029
G01 F400 X29.489 Y36.196
G01 F400 X29.680 Y36.409
G01 F400 X29.822 Y36.656
G01 F400 X29.845 Y36.725
G01 F400 X29.868 Y36.656
G01 F400 X30.010 Y36.409
G01 F400 X30.201 Y36.196
G01 F400 X30.432 Y36.029
G01 F400 X30.693 Y35.913
G01 F400 X30.972 Y35.853
G01 F400 X31.258 Y35.853
G01 F400 X31.537 Y35.913
G01 F400 X31.798 Y36.029
G01 F400 X32.029 Y36.196
G01 F400 X32.220 Y36.409
G01 F400 X32.362 Y36.656
G01 F400 X32.385 Y36.725
G01 F400 X32.408 Y36.656
G01 F400 X32.550 Y36.409
G01 F400 X32.741 Y36.196
G01 F400 X32.972 Y36.029
G01 F400 X33.233 Y35.913
G01 F400 X33.512 Y35.853
G01 F400 X33.798 Y35.853
G01 F400 X34.077 Y35.913
G01 F400 X34.338 Y36.029
G01 F400 X34.569 Y36.196
G01 F400 X34.760 Y36.409
G01 F400 X34.902 Y36.656
G01 F400 X34.925 Y36.725
G01 F400 X34.948 Y36.656
G01 F400 X35.090 Y36.409
G01 F400 X35.281 Y36.196
G01 F400 X35.512 Y36.029
G01 F400 X35.773 Y35.913
G01 F400 X36.052 Y35.853
G01 F400 X36.338 Y35.853
G01 F400 X36.617 Y35.913
G01 F400 X36.878 Y36.029
G01 F400 X37.109 Y36.196
G01 F400 X37.300 Y36.409
G01 F400 X37.442 Y36.656
G01 F400 X37.465 Y36.725
G01 F400 X37.488 Y36.656
G01 F400 X37.630 Y36.409
G01 F400 X37.821 Y36.196
G01 F400 X38.052 Y36.029
G01 F400 X38.313 Y35.913
G01 F400 X38.368 Y35.901
G01 F400 X45.778 Y28.491
G01 F400 X45.897 Y28.404
G01 F400 X46.040 Y28.341
G01 F400 X46.193 Y28.308
G01 F400 X77.019 Y28.308
G01 F400 X77.172 Y28.341
G01 F400 X77.316 Y28.404
G01 F400 X77.442 Y28.496
G01 F400 X77.547 Y28.613
G01 F400 X77.626 Y28.748
G01 F400 X77.674 Y28.898
G01 F400 X77.690 Y29.053
G01 F400 X77.674 Y29.209
G01 F400 X77.626 Y29.358
G01 F400 X77.547 Y29.494
G01 F400 X77.442 Y29.610
G01 F400 X77.316 Y29.702
G01 F400 X77.172 Y29.766
G01 F400 X77.019 Y29.799
G01 F400 X46.583 Y29.799
G01 F400 X39.888 Y36.493
G01 F400 X39.982 Y36.656
G01 F400 X40.005 Y36.725
G01 F400 X40.028 Y36.656
G01 F400 X40.170 Y36.409
G01 F400 X40.361 Y36.196
G01 F400 X40.592 Y36.029
G01 F400 X40.687 Y35.987
G01 F400 X40.755 Y35.910
G01 F400 X45.737 Y30.929
G01 F400 X45.856 Y30.842
G01 F400 X45.999 Y30.779
G01 F400 X46.152 Y30.746
G01 F400 X82.246 Y30.746
G01 F400 X82.314 Y30.670
G01 F400 X82.502 Y30.534
G01 F400 X82.715 Y30.439
G01 F400 X82.942 Y30.391
G01 F400 X83.174 Y30.391
G01 F400 X83.401 Y30.439
G01 F400 X83.614 Y30.534
G01 F400 X83.802 Y30.670
G01 F400 X83.871 Y30.747
G01 F400 X85.217 Y30.749
G01 F400 X85.288 Y30.670
G01 F400 X85.476 Y30.534
G01 F400 X85.689 Y30.439
G01 F400 X85.916 Y30.391
G01 F400 X86.624 Y30.391
G01 F400 X86.852 Y30.439
G01 F400 X87.064 Y30.534
G01 F400 X87.252 Y30.670
G01 F400 X87.407 Y30.843
G01 F400 X87.523 Y31.044
G01 F400 X87.595 Y31.265
G01 F400 X87.620 Y31.496
G01 F400 X87.595 Y31.727
G01 F400 X87.523 Y31.948
G01 F400 X87.407 Y32.149
G01 F400 X87.252 Y32.322
G01 F400 X87.064 Y32.459
G01 F400 X86.852 Y32.553
G01 F400 X86.624 Y32.601
G01 F400 X85.916 Y32.601
G01 F400 X85.689 Y32.553
G01 F400 X85.476 Y32.459
G01 F400 X85.288 Y32.322
G01 F400 X85.216 Y32.241
G01 F400 X83.874 Y32.241
G01 F400 X83.802 Y32.322
G01 F400 X83.614 Y32.459
G01 F400 X83.401 Y32.553
G01 F400 X83.174 Y32.601
G01 F400 X82.942 Y32.601
G01 F400 X82.715 Y32.553
G01 F400 X82.502 Y32.459
G01 F400 X82.314 Y32.322
G01 F400 X82.242 Y32.241
G01 F400 X46.542 Y32.237
G01 F400 X42.375 Y36.403
G01 F400 X42.380 Y36.408
G01 F400 X42.522 Y36.656
G01 F400 X42.545 Y36.725
G01 F400 X42.568 Y36.656
G01 F400 X42.710 Y36.409
G01 F400 X42.901 Y36.196
G01 F400 X43.132 Y36.029
G01 F400 X43.393 Y35.913
G01 F400 X43.672 Y35.853
G01 F400 X43.958 Y35.853
G01 F400 X44.237 Y35.913
G01 F400 X44.498 Y36.029
G01 F400 X44.729 Y36.196
G01 F400 X44.920 Y36.409
G01 F400 X45.062 Y36.656
G01 F400 X45.085 Y36.725
G01 F400 X45.108 Y36.656
G01 F400 X45.250 Y36.409
G01 F400 X45.441 Y36.196
G01 F400 X45.672 Y36.029
G01 F400 X45.933 Y35.913
G01 F400 X46.212 Y35.853
G01 F400 X46.498 Y35.853
G01 F400 X46.777 Y35.913
G01 F400 X47.038 Y36.029
G01 F400 X47.269 Y36.196
G01 F400 X47.460 Y36.409
G01 F400 X47.484 Y36.451
G01 F400 X68.140 Y36.466
G01 F400 X72.073 Y32.533
G01 F400 X72.192 Y32.446
G01 F400 X72.336 Y32.382
G01 F400 X72.489 Y32.349
G01 F400 X72.646 Y32.349
G01 F400 X72.799 Y32.382
G01 F400 X72.942 Y32.445
G01 F400 X73.069 Y32.538
G01 F400 X73.174 Y32.654
G01 F400 X73.252 Y32.790
G01 F400 X73.300 Y32.939
G01 F400 X73.317 Y33.094
G01 F400 X73.300 Y33.250
G01 F400 X73.252 Y33.399
G01 F400 X73.174 Y33.535
G01 F400 X73.087 Y33.631
G01 F400 X68.945 Y37.773
G01 F400 X68.826 Y37.860
G01 F400 X68.682 Y37.924
G01 F400 X68.529 Y37.956
G01 F400 X64.502 Y37.956
G01 F400 X64.502 Y42.594
G01 F400 X71.357 Y42.594
G01 F400 X71.511 Y42.626
G01 F400 X71.654 Y42.690
G01 F400 X71.773 Y42.777
G01 F400 X73.242 Y44.246
G01 F400 X73.394 Y44.246
G01 F400 X73.619 Y44.293
G01 F400 X73.829 Y44.387
G01 F400 X74.015 Y44.522
G01 F400 X74.168 Y44.693
G01 F400 X74.283 Y44.892
G01 F400 X74.354 Y45.110
G01 F400 X74.378 Y45.339
G01 F400 X74.354 Y45.568
G01 F400 X74.283 Y45.786
G01 F400 X74.168 Y45.985
G01 F400 X74.015 Y46.156
G01 F400 X73.829 Y46.291
G01 F400 X73.619 Y46.385
G01 F400 X73.394 Y46.432
G01 F400 X73.164 Y46.432
G01 F400 X72.939 Y46.385
G01 F400 X72.729 Y46.291
G01 F400 X72.543 Y46.156
G01 F400 X72.390 Y45.985
G01 F400 X72.275 Y45.786
G01 F400 X72.204 Y45.568
G01 F400 X72.180 Y45.339
G01 F400 X72.183 Y45.311
G01 F400 X70.967 Y44.084
G01 F400 X64.502 Y44.084
G01 F400 X64.502 Y44.535
G01 F400 X64.643 Y44.693
G01 F400 X64.758 Y44.892
G01 F400 X64.829 Y45.110
G01 F400 X64.853 Y45.339
G01 F400 X64.829 Y45.568
G01 F400 X64.758 Y45.786
G01 F400 X64.643 Y45.985
G01 F400 X64.490 Y46.156
G01 F400 X64.304 Y46.291
G01 F400 X64.094 Y46.385
G01 F400 X63.869 Y46.432
G01 F400 X63.639 Y46.432
G00 Z3.000
G00  X78.244 Y46.432
G01 F750 Z0
G01 F400 Z-0.100
G01 F400 X78.019 Y46.385
G01 F400 X77.809 Y46.291
G01 F400 X77.623 Y46.156
G01 F400 X77.470 Y45.985
G01 F400 X77.355 Y45.786
G01 F400 X77.284 Y45.568
G01 F400 X77.260 Y45.339
G01 F400 X77.284 Y45.110
G01 F400 X77.355 Y44.892
G01 F400 X77.470 Y44.693
G01 F400 X77.623 Y44.522
G01 F400 X77.809 Y44.387
G01 F400 X78.019 Y44.293
G01 F400 X78.244 Y44.246
G01 F400 X78.474 Y44.246
G01 F400 X78.699 Y44.293
G01 F400 X78.909 Y44.387
G01 F400 X79.095 Y44.522
G01 F400 X79.159 Y44.594
G01 F400 X86.464 Y44.594
G01 F400 X86.479 Y44.452
G01 F400 X86.553 Y44.224
G01 F400 X86.673 Y44.016
G01 F400 X86.834 Y43.837
G01 F400 X87.028 Y43.696
G01 F400 X87.248 Y43.598
G01 F400 X87.483 Y43.548
G01 F400 X87.723 Y43.548
G01 F400 X87.958 Y43.598
G01 F400 X88.178 Y43.696
G01 F400 X88.372 Y43.837
G01 F400 X88.533 Y44.016
G01 F400 X88.653 Y44.224
G01 F400 X88.727 Y44.452
G01 F400 X88.752 Y44.691
G01 F400 X88.727 Y44.930
G01 F400 X88.653 Y45.159
G01 F400 X88.533 Y45.367
G01 F400 X88.372 Y45.545
G01 F400 X88.178 Y45.687
G01 F400 X87.958 Y45.784
G01 F400 X87.723 Y45.834
G01 F400 X87.516 Y45.834
G01 F400 X87.449 Y45.901
G01 F400 X87.330 Y45.988
G01 F400 X87.187 Y46.052
G01 F400 X87.034 Y46.084
G01 F400 X79.159 Y46.084
G01 F400 X79.095 Y46.156
G01 F400 X78.909 Y46.291
G01 F400 X78.699 Y46.385
G01 F400 X78.474 Y46.432
G01 F400 X78.244 Y46.432
G00 Z3.000
G00  X92.363 Y45.860
G01 F750 Z0
G01 F400 Z-0.100
G01 F400 X92.128 Y45.810
G01 F400 X91.908 Y45.712
G01 F400 X91.714 Y45.571
G01 F400 X91.553 Y45.392
G01 F400 X91.433 Y45.184
G01 F400 X91.359 Y44.956
G01 F400 X91.334 Y44.717
G01 F400 X91.359 Y44.478
G01 F400 X91.433 Y44.249
G01 F400 X91.553 Y44.041
G01 F400 X91.714 Y43.863
G01 F400 X91.908 Y43.721
G01 F400 X92.128 Y43.624
G01 F400 X92.363 Y43.574
G01 F400 X92.603 Y43.574
G01 F400 X92.838 Y43.624
G01 F400 X93.058 Y43.721
G01 F400 X93.252 Y43.863
G01 F400 X93.413 Y44.041
G01 F400 X93.533 Y44.249
G01 F400 X93.607 Y44.478
G01 F400 X93.632 Y44.717
G01 F400 X93.607 Y44.956
G01 F400 X93.533 Y45.184
G01 F400 X93.413 Y45.392
G01 F400 X93.252 Y45.571
G01 F400 X93.058 Y45.712
G01 F400 X92.838 Y45.810
G01 F400 X92.603 Y45.860
G01 F400 X92.363 Y45.860
G00 Z3.000
G00  X35.214 Y44.716
G01 F750 Z0
G01 F400 Z-0.100
G01 F400 X34.950 Y44.660
G01 F400 X34.704 Y44.550
G01 F400 X34.486 Y44.392
G01 F400 X34.306 Y44.192
G01 F400 X34.171 Y43.958
G01 F400 X34.088 Y43.702
G01 F400 X34.060 Y43.434
G01 F400 X34.088 Y43.166
G01 F400 X34.171 Y42.910
G01 F400 X34.306 Y42.676
G01 F400 X34.486 Y42.476
G01 F400 X34.704 Y42.318
G01 F400 X34.950 Y42.208
G01 F400 X35.214 Y42.152
G01 F400 X35.484 Y42.152
G01 F400 X35.747 Y42.208
G01 F400 X35.994 Y42.318
G01 F400 X36.212 Y42.476
G01 F400 X36.392 Y42.676
G01 F400 X36.527 Y42.910
G01 F400 X36.610 Y43.166
G01 F400 X36.638 Y43.434
G01 F400 X36.610 Y43.702
G01 F400 X36.527 Y43.958
G01 F400 X36.392 Y44.192
G01 F400 X36.212 Y44.392
G01 F400 X35.994 Y44.550
G01 F400 X35.747 Y44.660
G01 F400 X35.484 Y44.716
G01 F400 X35.214 Y44.716
G00 Z3.000
G00  X82.942 Y40.221
G01 F750 Z0
G01 F400 Z-0.100
G01 F400 X82.715 Y40.173
G01 F400 X82.502 Y40.079
G01 F400 X82.314 Y39.942
G01 F400 X82.159 Y39.769
G01 F400 X82.043 Y39.568
G01 F400 X81.971 Y39.347
G01 F400 X81.947 Y39.116
G01 F400 X81.971 Y38.885
G01 F400 X82.043 Y38.664
G01 F400 X82.159 Y38.463
G01 F400 X82.314 Y38.290
G01 F400 X82.502 Y38.154
G01 F400 X82.715 Y38.059
G01 F400 X82.942 Y38.011
G01 F400 X83.174 Y38.011
G01 F400 X83.401 Y38.059
G01 F400 X83.614 Y38.154
G01 F400 X83.802 Y38.290
G01 F400 X83.874 Y38.371
G01 F400 X85.216 Y38.371
G01 F400 X85.288 Y38.290
G01 F400 X85.476 Y38.154
G01 F400 X85.689 Y38.059
G01 F400 X85.916 Y38.011
G01 F400 X86.624 Y38.011
G01 F400 X86.852 Y38.059
G01 F400 X87.064 Y38.154
G01 F400 X87.252 Y38.290
G01 F400 X87.407 Y38.463
G01 F400 X87.523 Y38.664
G01 F400 X87.595 Y38.885
G01 F400 X87.620 Y39.116
G01 F400 X87.595 Y39.347
G01 F400 X87.523 Y39.568
G01 F400 X87.407 Y39.769
G01 F400 X87.252 Y39.942
G01 F400 X87.064 Y40.079
G01 F400 X86.852 Y40.173
G01 F400 X86.624 Y40.221
G01 F400 X85.916 Y40.221
G01 F400 X85.689 Y40.173
G01 F400 X85.476 Y40.079
G01 F400 X85.288 Y39.942
G01 F400 X85.216 Y39.861
G01 F400 X83.874 Y39.861
G01 F400 X83.802 Y39.942
G01 F400 X83.614 Y40.079
G01 F400 X83.401 Y40.173
G01 F400 X83.174 Y40.221
G01 F400 X82.942 Y40.221
G00 Z3.000
G00  X93.716 Y40.221
G01 F750 Z0
G01 F400 Z-0.100
G01 F400 X93.489 Y40.173
G01 F400 X93.276 Y40.079
G01 F400 X93.088 Y39.942
G01 F400 X92.933 Y39.769
G01 F400 X92.817 Y39.568
G01 F400 X92.745 Y39.347
G01 F400 X92.721 Y39.116
G01 F400 X92.745 Y38.885
G01 F400 X92.817 Y38.664
G01 F400 X92.933 Y38.463
G01 F400 X93.088 Y38.290
G01 F400 X93.276 Y38.154
G01 F400 X93.489 Y38.059
G01 F400 X93.716 Y38.011
G01 F400 X94.424 Y38.011
G01 F400 X94.651 Y38.059
G01 F400 X94.864 Y38.154
G01 F400 X95.052 Y38.290
G01 F400 X95.124 Y38.371
G01 F400 X96.212 Y38.371
G01 F400 X96.284 Y38.290
G01 F400 X96.472 Y38.154
G01 F400 X96.685 Y38.059
G01 F400 X96.912 Y38.011
G01 F400 X97.144 Y38.011
G01 F400 X97.371 Y38.059
G01 F400 X97.584 Y38.154
G01 F400 X97.772 Y38.290
G01 F400 X97.927 Y38.463
G01 F400 X98.043 Y38.664
G01 F400 X98.115 Y38.885
G01 F400 X98.139 Y39.116
G01 F400 X98.115 Y39.347
G01 F400 X98.043 Y39.568
G01 F400 X97.927 Y39.769
G01 F400 X97.772 Y39.942
G01 F400 X97.584 Y40.079
G01 F400 X97.371 Y40.173
G01 F400 X97.144 Y40.221
G01 F400 X96.912 Y40.221
G01 F400 X96.685 Y40.173
G01 F400 X96.472 Y40.079
G01 F400 X96.284 Y39.942
G01 F400 X96.212 Y39.861
G01 F400 X95.124 Y39.861
G01 F400 X95.052 Y39.942
G01 F400 X94.864 Y40.079
G01 F400 X94.651 Y40.173
G01 F400 X94.424 Y40.221
G01 F400 X93.716 Y40.221
G00 Z3.000
G00  X2.471 Y39.328
G01 F750 Z0
G01 F400 Z-0.100
G01 F400 X2.088 Y39.247
G01 F400 X1.730 Y39.087
G01 F400 X1.413 Y38.857
G01 F400 X1.151 Y38.566
G01 F400 X0.956 Y38.227
G01 F400 X0.835 Y37.855
G01 F400 X0.794 Y37.465
G01 F400 X0.835 Y37.076
G01 F400 X0.956 Y36.703
G01 F400 X1.151 Y36.364
G01 F400 X1.413 Y36.073
G01 F400 X1.730 Y35.843
G01 F400 X2.088 Y35.683
G01 F400 X2.471 Y35.602
G01 F400 X2.863 Y35.602
G01 F400 X3.246 Y35.683
G01 F400 X3.604 Y35.843
G01 F400 X3.921 Y36.073
G01 F400 X4.183 Y36.364
G01 F400 X4.378 Y36.703
G01 F400 X4.500 Y37.076
G01 F400 X4.540 Y37.465
G01 F400 X4.500 Y37.855
G01 F400 X4.378 Y38.227
G01 F400 X4.183 Y38.566
G01 F400 X3.921 Y38.857
G01 F400 X3.604 Y39.087
G01 F400 X3.246 Y39.247
G01 F400 X2.863 Y39.328
G01 F400 X2.471 Y39.328
G00 Z3.000
G00  X77.655 Y39.328
G01 F750 Z0
G01 F400 Z-0.100
G01 F400 X77.272 Y39.247
G01 F400 X76.914 Y39.087
G01 F400 X76.597 Y38.857
G01 F400 X76.335 Y38.566
G01 F400 X76.140 Y38.227
G01 F400 X76.019 Y37.855
G01 F400 X75.978 Y37.465
G01 F400 X76.019 Y37.076
G01 F400 X76.140 Y36.703
G01 F400 X76.335 Y36.364
G01 F400 X76.597 Y36.073
G01 F400 X76.914 Y35.843
G01 F400 X77.272 Y35.683
G01 F400 X77.655 Y35.602
G01 F400 X78.047 Y35.602
G01 F400 X78.430 Y35.683
G01 F400 X78.788 Y35.843
G01 F400 X79.105 Y36.073
G01 F400 X79.367 Y36.364
G01 F400 X79.562 Y36.703
G01 F400 X79.684 Y37.076
G01 F400 X79.724 Y37.465
G01 F400 X79.684 Y37.855
G01 F400 X79.562 Y38.227
G01 F400 X79.367 Y38.566
G01 F400 X79.105 Y38.857
G01 F400 X78.788 Y39.087
G01 F400 X78.430 Y39.247
G01 F400 X78.047 Y39.328
G01 F400 X77.655 Y39.328
G00 Z3.000
G00  X82.942 Y37.681
G01 F750 Z0
G01 F400 Z-0.100
G01 F400 X82.715 Y37.633
G01 F400 X82.502 Y37.538
G01 F400 X82.314 Y37.402
G01 F400 X82.159 Y37.229
G01 F400 X82.043 Y37.028
G01 F400 X81.971 Y36.807
G01 F400 X81.947 Y36.576
G01 F400 X81.971 Y36.345
G01 F400 X82.043 Y36.124
G01 F400 X82.159 Y35.923
G01 F400 X82.314 Y35.750
G01 F400 X82.502 Y35.614
G01 F400 X82.715 Y35.519
G01 F400 X82.942 Y35.471
G01 F400 X83.174 Y35.471
G01 F400 X83.401 Y35.519
G01 F400 X83.614 Y35.614
G01 F400 X83.802 Y35.750
G01 F400 X83.874 Y35.831
G01 F400 X85.216 Y35.831
G01 F400 X85.288 Y35.750
G01 F400 X85.476 Y35.614
G01 F400 X85.689 Y35.519
G01 F400 X85.916 Y35.471
G01 F400 X86.624 Y35.471
G01 F400 X86.852 Y35.519
G01 F400 X87.064 Y35.614
G01 F400 X87.252 Y35.750
G01 F400 X87.407 Y35.923
G01 F400 X87.523 Y36.124
G01 F400 X87.595 Y36.345
G01 F400 X87.620 Y36.576
G01 F400 X87.595 Y36.807
G01 F400 X87.523 Y37.028
G01 F400 X87.407 Y37.229
G01 F400 X87.252 Y37.402
G01 F400 X87.064 Y37.538
G01 F400 X86.852 Y37.633
G01 F400 X86.624 Y37.681
G01 F400 X85.916 Y37.681
G01 F400 X85.689 Y37.633
G01 F400 X85.476 Y37.538
G01 F400 X85.288 Y37.402
G01 F400 X85.216 Y37.321
G01 F400 X83.874 Y37.321
G01 F400 X83.802 Y37.402
G01 F400 X83.614 Y37.538
G01 F400 X83.401 Y37.633
G01 F400 X83.174 Y37.681
G01 F400 X82.942 Y37.681
G00 Z3.000
G00  X93.716 Y37.681
G01 F750 Z0
G01 F400 Z-0.100
G01 F400 X93.489 Y37.633
G01 F400 X93.276 Y37.538
G01 F400 X93.088 Y37.402
G01 F400 X92.933 Y37.229
G01 F400 X92.817 Y37.028
G01 F400 X92.745 Y36.807
G01 F400 X92.721 Y36.576
G01 F400 X92.745 Y36.345
G01 F400 X92.817 Y36.124
G01 F400 X92.933 Y35.923
G01 F400 X93.088 Y35.750
G01 F400 X93.276 Y35.614
G01 F400 X93.489 Y35.519
G01 F400 X93.716 Y35.471
G01 F400 X94.424 Y35.471
G01 F400 X94.651 Y35.519
G01 F400 X94.864 Y35.614
G01 F400 X95.052 Y35.750
G01 F400 X95.124 Y35.831
G01 F400 X96.212 Y35.831
G01 F400 X96.284 Y35.750
G01 F400 X96.472 Y35.614
G01 F400 X96.685 Y35.519
G01 F400 X96.912 Y35.471
G01 F400 X97.144 Y35.471
G01 F400 X97.371 Y35.519
G01 F400 X97.584 Y35.614
G01 F400 X97.772 Y35.750
G01 F400 X97.927 Y35.923
G01 F400 X98.043 Y36.124
G01 F400 X98.115 Y36.345
G01 F400 X98.139 Y36.576
G01 F400 X98.115 Y36.807
G01 F400 X98.043 Y37.028
G01 F400 X97.927 Y37.229
G01 F400 X97.772 Y37.402
G01 F400 X97.584 Y37.538
G01 F400 X97.371 Y37.633
G01 F400 X97.144 Y37.681
G01 F400 X96.912 Y37.681
G01 F400 X96.685 Y37.633
G01 F400 X96.472 Y37.538
G01 F400 X96.284 Y37.402
G01 F400 X96.212 Y37.321
G01 F400 X95.124 Y37.321
G01 F400 X95.052 Y37.402
G01 F400 X94.864 Y37.538
G01 F400 X94.651 Y37.633
G01 F400 X94.424 Y37.681
G01 F400 X93.716 Y37.681
G00 Z3.000
G00  X2.616 Y35.191
G01 F750 Z0
G01 F400 Z-0.100
