( PCB drills )
( Generated by Carbide Copper )
( Material Size )
( X= 103.000, Y= 53.000, Z= 1.500 )
()
G17
G21
G54
G90
T1 M06
G00  X60.034 Y44.141
G00 F750 Z0
G01 F15000 Z-1.700
G00 Z3.000
G00  X76.941 Y29.053
G00 F750 Z0
G01 F15000 Z-1.700
G00 Z3.000
G00  X72.567 Y33.094
G00 F750 Z0
G01 F15000 Z-1.700
G00 Z3.000
T2 M06
G00  X87.603 Y44.691
G00 F750 Z0
G01 F15000 Z-1.700
G00 Z3.000
G00  X92.483 Y44.717
G00 F750 Z0
G01 F15000 Z-1.700
G00 Z3.000
T3 M06
G00  X46.358 Y37.211
G00 F750 Z0
G01 F15000 Z-1.700
G00 Z3.000
G00  X43.818 Y37.211
G00 F750 Z0
G01 F15000 Z-1.700
G00 Z3.000
G00  X41.278 Y37.211
G00 F750 Z0
G01 F15000 Z-1.700
G00 Z3.000
G00  X38.738 Y37.211
G00 F750 Z0
G01 F15000 Z-1.700
G00 Z3.000
G00  X36.198 Y37.211
G00 F750 Z0
G01 F15000 Z-1.700
G00 Z3.000
G00  X33.658 Y37.211
G00 F750 Z0
G01 F15000 Z-1.700
G00 Z3.000
G00  X31.118 Y37.211
G00 F750 Z0
G01 F15000 Z-1.700
G00 Z3.000
G00  X28.578 Y37.211
G00 F750 Z0
G01 F15000 Z-1.700
G00 Z3.000
G00  X26.038 Y37.211
G00 F750 Z0
G01 F15000 Z-1.700
G00 Z3.000
G00  X23.498 Y37.211
G00 F750 Z0
G01 F15000 Z-1.700
G00 Z3.000
G00  X20.958 Y37.211
G00 F750 Z0
G01 F15000 Z-1.700
G00 Z3.000
G00  X18.418 Y37.211
G00 F750 Z0
G01 F15000 Z-1.700
G00 Z3.000
G00  X15.878 Y37.211
G00 F750 Z0
G01 F15000 Z-1.700
G00 Z3.000
G00  X13.338 Y37.211
G00 F750 Z0
G01 F15000 Z-1.700
G00 Z3.000
G00  X10.798 Y37.211
G00 F750 Z0
G01 F15000 Z-1.700
G00 Z3.000
G00  X8.258 Y37.211
G00 F750 Z0
G01 F15000 Z-1.700
G00 Z3.000
T4 M06
G00  X2.751 Y33.909
G00 F750 Z0
G01 F15000 Z-1.700
G00 Z3.000
G00  X13.251 Y33.909
G00 F750 Z0
G01 F15000 Z-1.700
G00 Z3.000
G00  X35.349 Y43.434
G00 F750 Z0
G01 F15000 Z-1.700
G00 Z3.000
G00  X24.849 Y43.434
G00 F750 Z0
G01 F15000 Z-1.700
G00 Z3.000
T5 M06
G00  X94.070 Y6.096
G00 F750 Z0
G01 F15000 Z-1.700
G00 Z3.000
G00  X86.270 Y6.096
G00 F750 Z0
G01 F15000 Z-1.700
G00 Z3.000
G00  X94.070 Y8.636
G00 F750 Z0
G01 F15000 Z-1.700
G00 Z3.000
G00  X86.270 Y8.636
G00 F750 Z0
G01 F15000 Z-1.700
G00 Z3.000
G00  X94.070 Y11.176
G00 F750 Z0
G01 F15000 Z-1.700
G00 Z3.000
G00  X86.270 Y11.176
G00 F750 Z0
G01 F15000 Z-1.700
G00 Z3.000
G00  X94.070 Y13.716
G00 F750 Z0
G01 F15000 Z-1.700
G00 Z3.000
G00  X86.270 Y13.716
G00 F750 Z0
G01 F15000 Z-1.700
G00 Z3.000
G00  X94.070 Y16.256
G00 F750 Z0
G01 F15000 Z-1.700
G00 Z3.000
G00  X86.270 Y16.256
G00 F750 Z0
G01 F15000 Z-1.700
G00 Z3.000
G00  X94.070 Y18.796
G00 F750 Z0
G01 F15000 Z-1.700
G00 Z3.000
G00  X86.270 Y18.796
G00 F750 Z0
G01 F15000 Z-1.700
G00 Z3.000
G00  X94.070 Y21.336
G00 F750 Z0
G01 F15000 Z-1.700
G00 Z3.000
G00  X86.270 Y21.336
G00 F750 Z0
G01 F15000 Z-1.700
G00 Z3.000
G00  X94.070 Y23.876
G00 F750 Z0
G01 F15000 Z-1.700
G00 Z3.000
G00  X86.270 Y23.876
G00 F750 Z0
G01 F15000 Z-1.700
G00 Z3.000
G00  X94.070 Y26.416
G00 F750 Z0
G01 F15000 Z-1.700
G00 Z3.000
G00  X86.270 Y26.416
G00 F750 Z0
G01 F15000 Z-1.700
G00 Z3.000
G00  X94.070 Y28.956
G00 F750 Z0
G01 F15000 Z-1.700
G00 Z3.000
G00  X86.270 Y28.956
G00 F750 Z0
G01 F15000 Z-1.700
G00 Z3.000
G00  X94.070 Y31.496
G00 F750 Z0
G01 F15000 Z-1.700
G00 Z3.000
G00  X86.270 Y31.496
G00 F750 Z0
G01 F15000 Z-1.700
G00 Z3.000
G00  X94.070 Y34.036
G00 F750 Z0
G01 F15000 Z-1.700
G00 Z3.000
G00  X86.270 Y34.036
G00 F750 Z0
G01 F15000 Z-1.700
G00 Z3.000
G00  X94.070 Y36.576
G00 F750 Z0
G01 F15000 Z-1.700
G00 Z3.000
G00  X86.270 Y36.576
G00 F750 Z0
G01 F15000 Z-1.700
G00 Z3.000
G00  X94.070 Y39.116
G00 F750 Z0
G01 F15000 Z-1.700
G00 Z3.000
G00  X86.270 Y39.116
G00 F750 Z0
G01 F15000 Z-1.700
G00 Z3.000
G00  X73.279 Y45.339
G00 F750 Z0
G01 F15000 Z-1.700
G00 Z3.000
G00  X78.359 Y45.339
G00 F750 Z0
G01 F15000 Z-1.700
G00 Z3.000
G00  X63.754 Y45.339
G00 F750 Z0
G01 F15000 Z-1.700
G00 Z3.000
G00  X68.834 Y45.339
G00 F750 Z0
G01 F15000 Z-1.700
G00 Z3.000
T6 M06
G00  X83.058 Y39.116
G00 F750 Z0
G01 F15000 Z-1.700
G00 Z3.000
G00  X83.058 Y36.576
G00 F750 Z0
G01 F15000 Z-1.700
G00 Z3.000
G00  X83.058 Y31.496
G00 F750 Z0
G01 F15000 Z-1.700
G00 Z3.000
G00  X83.058 Y34.036
G00 F750 Z0
G01 F15000 Z-1.700
G00 Z3.000
G00  X83.058 Y23.876
G00 F750 Z0
G01 F15000 Z-1.700
G00 Z3.000
G00  X83.058 Y21.336
G00 F750 Z0
G01 F15000 Z-1.700
G00 Z3.000
G00  X83.058 Y26.416
G00 F750 Z0
G01 F15000 Z-1.700
G00 Z3.000
G00  X83.058 Y28.956
G00 F750 Z0
G01 F15000 Z-1.700
G00 Z3.000
G00  X83.058 Y8.636
G00 F750 Z0
G01 F15000 Z-1.700
G00 Z3.000
G00  X83.058 Y6.096
G00 F750 Z0
G01 F15000 Z-1.700
G00 Z3.000
G00  X83.058 Y13.716
G00 F750 Z0
G01 F15000 Z-1.700
G00 Z3.000
G00  X83.058 Y11.176
G00 F750 Z0
G01 F15000 Z-1.700
G00 Z3.000
G00  X83.058 Y16.256
G00 F750 Z0
G01 F15000 Z-1.700
G00 Z3.000
G00  X83.058 Y18.796
G00 F750 Z0
G01 F15000 Z-1.700
G00 Z3.000
G00  X97.028 Y18.796
G00 F750 Z0
G01 F15000 Z-1.700
G00 Z3.000
G00  X97.028 Y16.256
G00 F750 Z0
G01 F15000 Z-1.700
G00 Z3.000
G00  X97.028 Y11.176
G00 F750 Z0
G01 F15000 Z-1.700
G00 Z3.000
G00  X97.028 Y13.716
G00 F750 Z0
G01 F15000 Z-1.700
G00 Z3.000
G00  X97.028 Y6.096
G00 F750 Z0
G01 F15000 Z-1.700
G00 Z3.000
G00  X97.028 Y8.636
G00 F750 Z0
G01 F15000 Z-1.700
G00 Z3.000
G00  X97.028 Y28.956
G00 F750 Z0
G01 F15000 Z-1.700
G00 Z3.000
G00  X97.028 Y26.416
G00 F750 Z0
G01 F15000 Z-1.700
G00 Z3.000
G00  X97.028 Y21.336
G00 F750 Z0
G01 F15000 Z-1.700
G00 Z3.000
G00  X97.028 Y23.876
G00 F750 Z0
G01 F15000 Z-1.700
G00 Z3.000
G00  X97.028 Y34.036
G00 F750 Z0
G01 F15000 Z-1.700
G00 Z3.000
G00  X97.028 Y31.496
G00 F750 Z0
G01 F15000 Z-1.700
G00 Z3.000
G00  X97.028 Y36.576
G00 F750 Z0
G01 F15000 Z-1.700
G00 Z3.000
G00  X97.028 Y39.116
G00 F750 Z0
G01 F15000 Z-1.700
G00 Z3.000
T7 M06
G00  X8.807 Y43.382
G00 F750 Z0
G01 F15000 Z-1.700
G00 Z3.000
G00  X6.307 Y49.582
G00 F750 Z0
G01 F15000 Z-1.700
G00 Z3.000
G00  X2.857 Y45.132
G00 F750 Z0
G01 F15000 Z-1.700
G00 Z3.000
G00  X49.732 Y46.518
G00 F750 Z0
G01 F15000 Z-1.700
G00 Z3.000
G00  X43.232 Y46.518
G00 F750 Z0
G01 F15000 Z-1.700
G00 Z3.000
G00  X43.232 Y51.018
G00 F750 Z0
G01 F15000 Z-1.700
G00 Z3.000
G00  X49.732 Y51.018
G00 F750 Z0
G01 F15000 Z-1.700
G00 Z3.000
G00  X18.034 Y46.228
G00 F750 Z0
G01 F15000 Z-1.700
G00 Z3.000
G00  X18.034 Y50.165
G00 F750 Z0
G01 F15000 Z-1.700
G00 Z3.000
T8 M06
G00  X2.670 Y37.465
G00 F750 Z0
G01 F15000 Z-1.700
G00 Z3.000
G00  X2.670 Y6.477
G00 F750 Z0
G01 F15000 Z-1.700
G00 Z3.000
G00  X77.854 Y37.465
G00 F750 Z0
G01 F15000 Z-1.700
G00 Z3.000
G00  X77.854 Y6.477
G00 F750 Z0
G01 F15000 Z-1.700
G00 Z3.000
G00 Z3.000
M05
M30
%