( PCB Cuts )
( Generated by Carbide Copper )
( Material Size )
( X= 103.000, Y= 53.000, Z= 1.500 )
()
G17
G21
G54
G90
G00  X-0.462 Y54.247
G01 F750 Z0
G01 F200 Z-1.500
G01 F200 X-0.652 Y54.207
G01 F200 X-0.828 Y54.128
G01 F200 X-0.985 Y54.015
G01 F200 X-1.114 Y53.871
G01 F200 X-1.211 Y53.704
G01 F200 X-1.270 Y53.520
G01 F200 X-1.286 Y53.369
G01 F200 X-1.286 Y-0.169
G01 F200 X-1.270 Y-0.319
G01 F200 X-1.211 Y-0.503
G01 F200 X-1.114 Y-0.671
G01 F200 X-0.985 Y-0.814
G01 F200 X-0.828 Y-0.928
G01 F200 X-0.652 Y-1.007
G01 F200 X-0.462 Y-1.047
G01 F200 X102.078 Y-1.047
G01 F200 X102.267 Y-1.007
G01 F200 X102.443 Y-0.928
G01 F200 X102.600 Y-0.814
G01 F200 X102.729 Y-0.671
G01 F200 X102.826 Y-0.503
G01 F200 X102.886 Y-0.319
G01 F200 X102.901 Y-0.169
G01 F200 X102.901 Y53.369
G01 F200 X102.886 Y53.520
G01 F200 X102.826 Y53.704
G01 F200 X102.729 Y53.871
G01 F200 X102.600 Y54.015
G01 F200 X102.443 Y54.128
G01 F200 X102.267 Y54.207
G01 F200 X102.078 Y54.247
G01 F200 X-0.462 Y54.247
G00 Z3.000
G00 Z3.000
M05
M30
%